; generated by PrusaSlicer 2.2.0+win64 on 2020-05-30 at 20:35:53 UTC

; 

; external perimeters extrusion width = 0.45mm
; perimeters extrusion width = 0.45mm
; infill extrusion width = 0.45mm
; solid infill extrusion width = 0.45mm
; top infill extrusion width = 0.40mm
; first layer extrusion width = 0.35mm

M107
T0 ; make sure the hotend is selected
M98 P/macros/PETGoffset  ; set z probe offset
M104 S255 ; start heating the hotend
M190 S80 ; heat the bed and wait
G28 ; home all axes
G29 ; bed calibration - RRF
M109 S255 ; finish heating the hotend
;M117 Single-Titan-E3DV6
G21 ; set units to millimeters
G90 ; use absolute coordinates
M83 ; use relative distances for extrusion
; Filament gcode
G10 ; retract
G1 Z0.300 F7800.000
G1 X165.835 Y111.194
G11 ; unretract
G1 F1680.000
G1 X166.914 Y110.012 E0.05043
G1 X168.173 Y109.122 E0.04855
G1 X169.639 Y108.499 E0.05018
G1 X171.253 Y108.206 E0.05167
G1 X210.412 Y108.191 E1.23354
G1 X211.596 Y108.295 E0.03744
G1 X212.720 Y108.581 E0.03653
G1 X213.772 Y109.036 E0.03611
G1 X214.802 Y109.695 E0.03853
G1 X215.664 Y110.470 E0.03651
G1 X216.388 Y111.365 E0.03625
G1 X216.976 Y112.395 E0.03737
G1 X217.387 Y113.487 E0.03674
G1 X234.997 Y176.920 E2.07374
G1 X235.169 Y178.398 E0.04687
G1 X235.129 Y185.270 E0.21648
G1 X234.962 Y186.230 E0.03071
G1 X234.678 Y187.136 E0.02990
G1 X234.276 Y188.004 E0.03013
G1 X233.767 Y188.807 E0.02994
G1 X232.610 Y190.057 E0.05366
G1 X231.221 Y190.991 E0.05274
G1 X229.626 Y191.593 E0.05369
G1 X228.027 Y191.808 E0.05081
G1 X154.692 Y191.808 E2.31009
G1 X153.578 Y191.698 E0.03525
G1 X152.504 Y191.421 E0.03494
G1 X151.496 Y190.991 E0.03452
G1 X150.517 Y190.380 E0.03634
G1 X149.545 Y189.521 E0.04088
G1 X148.743 Y188.503 E0.04082
G1 X148.109 Y187.307 E0.04264
G1 X147.714 Y186.047 E0.04159
G1 X147.548 Y184.520 E0.04838
G1 X147.549 Y178.373 E0.19362
G1 X147.691 Y177.066 E0.04142
G1 X164.691 Y113.572 E2.07053
G1 X165.174 Y112.295 E0.04302
G1 X165.804 Y111.246 E0.03856
G1 X167.136 Y110.190 F7800.000
G1 F1680.000
G1 X168.399 Y109.318 E0.04836
G1 X169.772 Y108.752 E0.04678
G1 X171.286 Y108.485 E0.04842
G1 X210.412 Y108.471 E1.23249
G1 X211.549 Y108.571 E0.03595
G1 X212.633 Y108.848 E0.03525
G1 X213.648 Y109.288 E0.03484
G1 X214.640 Y109.924 E0.03711
G1 X215.466 Y110.669 E0.03504
G1 X216.160 Y111.529 E0.03479
G1 X216.740 Y112.552 E0.03706
G1 X217.120 Y113.575 E0.03438
G1 X234.720 Y176.969 E2.07247
G1 X234.888 Y178.402 E0.04546
G1 X234.851 Y185.228 E0.21501
G1 X234.692 Y186.153 E0.02956
G1 X234.418 Y187.031 E0.02897
G1 X234.028 Y187.871 E0.02918
G1 X233.535 Y188.648 E0.02900
G1 X232.422 Y189.848 E0.05153
G1 X231.083 Y190.747 E0.05083
G1 X229.550 Y191.323 E0.05157
G1 X228.019 Y191.528 E0.04865
G1 X154.700 Y191.528 E2.30958
G1 X153.626 Y191.421 E0.03400
G1 X152.590 Y191.154 E0.03370
G1 X151.619 Y190.738 E0.03329
G1 X150.672 Y190.146 E0.03516
G1 X149.739 Y189.318 E0.03932
G1 X148.970 Y188.337 E0.03926
G1 X148.363 Y187.187 E0.04095
G1 X147.983 Y185.962 E0.04040
G1 X147.829 Y184.511 E0.04598
G1 X147.830 Y178.382 E0.19305
G1 X147.969 Y177.107 E0.04041
G1 X164.962 Y113.646 E2.06948
G1 X165.430 Y112.410 E0.04163
G1 X166.067 Y111.352 E0.03890
G1 X167.095 Y110.235 E0.04784
G10 ; retract
G1 X190.452 Y152.509 F7800.000
G11 ; unretract
G1 F480.000
G1 X191.030 Y152.301 E0.01937
G1 X191.445 Y152.222 E0.01329
G1 X191.862 Y152.196 E0.01318
G1 X192.478 Y152.253 E0.01948
G1 X193.076 Y152.427 E0.01960
G1 X193.630 Y152.709 E0.01960
G1 X194.121 Y153.091 E0.01960
G1 X194.533 Y153.557 E0.01960
G1 X194.846 Y154.087 E0.01937
G1 X195.001 Y154.479 E0.01330
G1 X195.106 Y154.888 E0.01330
G1 X195.164 Y155.500 E0.01937
G1 X195.106 Y156.112 E0.01937
G1 X195.001 Y156.521 E0.01330
G1 X194.846 Y156.913 E0.01330
G1 X194.533 Y157.443 E0.01937
G1 X194.121 Y157.909 E0.01960
G1 X193.630 Y158.291 E0.01960
G1 X193.076 Y158.573 E0.01960
G1 X192.478 Y158.747 E0.01960
G1 X191.859 Y158.805 E0.01960
G1 X191.240 Y158.747 E0.01960
G1 X190.642 Y158.573 E0.01960
G1 X190.088 Y158.291 E0.01960
G1 X189.596 Y157.909 E0.01960
G1 X189.185 Y157.443 E0.01960
G1 X188.872 Y156.913 E0.01937
G1 X188.717 Y156.521 E0.01330
G1 X188.612 Y156.112 E0.01330
G1 X188.554 Y155.500 E0.01937
G1 X188.612 Y154.881 E0.01960
G1 X188.786 Y154.283 E0.01960
G1 X189.068 Y153.729 E0.01960
G1 X189.450 Y153.237 E0.01960
G1 X189.916 Y152.826 E0.01960
G1 X190.400 Y152.540 E0.01771
G1 X190.543 Y152.781 F7800.000
G1 F480.000
G1 X191.105 Y152.573 E0.01888
G1 X191.480 Y152.501 E0.01204
G1 X191.858 Y152.477 E0.01194
G1 X192.425 Y152.530 E0.01794
G1 X192.972 Y152.689 E0.01793
G1 X193.479 Y152.947 E0.01792
G1 X193.929 Y153.296 E0.01792
G1 X194.305 Y153.723 E0.01792
G1 X194.593 Y154.210 E0.01784
G1 X194.734 Y154.566 E0.01204
G1 X194.829 Y154.936 E0.01204
G1 X194.882 Y155.500 E0.01784
G1 X194.829 Y156.064 E0.01784
G1 X194.734 Y156.434 E0.01204
G1 X194.593 Y156.790 E0.01204
G1 X194.305 Y157.277 E0.01784
G1 X193.929 Y157.704 E0.01792
G1 X193.479 Y158.053 E0.01792
G1 X192.972 Y158.311 E0.01792
G1 X192.425 Y158.470 E0.01792
G1 X191.859 Y158.523 E0.01792
G1 X191.292 Y158.470 E0.01792
G1 X190.746 Y158.311 E0.01792
G1 X190.239 Y158.053 E0.01792
G1 X189.789 Y157.704 E0.01792
G1 X189.413 Y157.277 E0.01792
G1 X189.125 Y156.790 E0.01784
G1 X188.984 Y156.434 E0.01204
G1 X188.889 Y156.064 E0.01204
G1 X188.836 Y155.500 E0.01784
G1 X188.889 Y154.933 E0.01792
G1 X189.048 Y154.387 E0.01792
G1 X189.306 Y153.880 E0.01792
G1 X189.655 Y153.430 E0.01792
G1 X190.082 Y153.054 E0.01792
G1 X190.491 Y152.812 E0.01498
G1 X190.573 Y152.383 F7800.000
G10 ; retract
G1 X187.477 Y158.366
G11 ; unretract
G1 F480.000
G1 X187.262 Y158.027 E0.01263
G1 X186.978 Y157.425 E0.02098
G1 X186.871 Y157.128 E0.00993
G1 X186.706 Y156.483 E0.02098
G1 X186.622 Y155.822 E0.02098
G1 X186.612 Y155.500 E0.01016
G1 X186.622 Y155.178 E0.01016
G1 X186.706 Y154.517 E0.02098
G1 X186.871 Y153.872 E0.02098
G1 X186.978 Y153.575 E0.00993
G1 X187.262 Y152.973 E0.02098
G1 X187.615 Y152.416 E0.02077
G1 X187.812 Y152.161 E0.01014
G1 X188.268 Y151.676 E0.02097
G1 X188.781 Y151.251 E0.02098
G1 X189.048 Y151.070 E0.01016
G1 X189.325 Y150.906 E0.01016
G1 X189.934 Y150.619 E0.02120
G1 X190.231 Y150.513 E0.00993
G1 X190.876 Y150.347 E0.02098
G1 X191.536 Y150.264 E0.02097
G1 X191.858 Y150.254 E0.01014
G1 X192.516 Y150.295 E0.02077
G1 X193.164 Y150.419 E0.02075
G1 X193.797 Y150.625 E0.02098
G1 X194.093 Y150.753 E0.01016
G1 X194.380 Y150.899 E0.01016
G1 X194.942 Y151.256 E0.02098
G1 X195.456 Y151.680 E0.02098
G1 X195.679 Y151.903 E0.00993
G1 X196.108 Y152.422 E0.02120
G1 X196.289 Y152.689 E0.01016
G1 X196.453 Y152.966 E0.01016
G1 X196.740 Y153.575 E0.02120
G1 X196.846 Y153.872 E0.00993
G1 X197.012 Y154.517 E0.02098
G1 X197.095 Y155.178 E0.02098
G1 X197.106 Y155.500 E0.01016
G1 X197.095 Y155.822 E0.01016
G1 X197.012 Y156.483 E0.02098
G1 X196.846 Y157.128 E0.02098
G1 X196.740 Y157.425 E0.00993
G1 X196.453 Y158.034 E0.02120
G1 X196.289 Y158.311 E0.01016
G1 X196.108 Y158.578 E0.01016
G1 X195.679 Y159.096 E0.02119
G1 X195.451 Y159.324 E0.01014
G1 X194.943 Y159.744 E0.02077
G1 X194.386 Y160.097 E0.02075
G1 X193.784 Y160.381 E0.02098
G1 X193.487 Y160.487 E0.00993
G1 X192.842 Y160.653 E0.02098
G1 X192.181 Y160.737 E0.02098
G1 X191.859 Y160.747 E0.01016
G1 X191.537 Y160.737 E0.01016
G1 X190.876 Y160.653 E0.02098
G1 X190.231 Y160.487 E0.02098
G1 X189.934 Y160.381 E0.00993
G1 X189.325 Y160.094 E0.02120
G1 X189.048 Y159.930 E0.01016
G1 X188.781 Y159.749 E0.01016
G1 X188.262 Y159.320 E0.02120
G1 X188.039 Y159.097 E0.00993
G1 X187.615 Y158.584 E0.02098
G1 X187.509 Y158.416 E0.00623
G1 X187.272 Y158.567 F7800.000
G1 F480.000
G1 X187.015 Y158.163 E0.01507
G1 X186.719 Y157.532 E0.02195
G1 X186.603 Y157.211 E0.01077
G1 X186.430 Y156.536 E0.02195
G1 X186.342 Y155.844 E0.02195
G1 X186.332 Y155.500 E0.01085
G1 X186.342 Y155.156 E0.01085
G1 X186.430 Y154.464 E0.02195
G1 X186.603 Y153.789 E0.02195
G1 X186.719 Y153.468 E0.01077
G1 X187.015 Y152.837 E0.02195
G1 X187.385 Y152.254 E0.02174
G1 X187.598 Y151.979 E0.01098
G1 X188.075 Y151.471 E0.02195
G1 X188.612 Y151.027 E0.02195
G1 X188.897 Y150.833 E0.01085
G1 X189.194 Y150.658 E0.01085
G1 X189.827 Y150.360 E0.02204
G1 X190.148 Y150.244 E0.01077
G1 X190.823 Y150.071 E0.02195
G1 X191.514 Y149.983 E0.02195
G1 X191.863 Y149.973 E0.01098
G1 X192.552 Y150.016 E0.02174
G1 X193.233 Y150.146 E0.02187
G1 X193.896 Y150.362 E0.02195
G1 X194.212 Y150.499 E0.01085
G1 X194.519 Y150.655 E0.01085
G1 X195.108 Y151.028 E0.02195
G1 X195.645 Y151.473 E0.02195
G1 X195.886 Y151.714 E0.01077
G1 X196.332 Y152.253 E0.02204
G1 X196.526 Y152.538 E0.01085
G1 X196.701 Y152.835 E0.01085
G1 X196.999 Y153.468 E0.02204
G1 X197.115 Y153.789 E0.01077
G1 X197.288 Y154.464 E0.02195
G1 X197.376 Y155.156 E0.02195
G1 X197.386 Y155.500 E0.01085
G1 X197.376 Y155.844 E0.01085
G1 X197.288 Y156.536 E0.02195
G1 X197.115 Y157.211 E0.02195
G1 X196.999 Y157.532 E0.01077
G1 X196.701 Y158.165 E0.02204
G1 X196.526 Y158.462 E0.01085
G1 X196.332 Y158.747 E0.01085
G1 X195.886 Y159.286 E0.02203
G1 X195.640 Y159.532 E0.01098
G1 X195.108 Y159.972 E0.02174
G1 X194.522 Y160.343 E0.02187
G1 X193.891 Y160.640 E0.02195
G1 X193.570 Y160.756 E0.01077
G1 X192.895 Y160.929 E0.02195
G1 X192.203 Y161.017 E0.02195
G1 X191.859 Y161.027 E0.01085
G1 X191.515 Y161.017 E0.01085
G1 X190.823 Y160.929 E0.02195
G1 X190.148 Y160.756 E0.02195
G1 X189.827 Y160.640 E0.01077
G1 X189.194 Y160.342 E0.02204
G1 X188.897 Y160.167 E0.01085
G1 X188.612 Y159.973 E0.01085
G1 X188.073 Y159.527 E0.02204
G1 X187.832 Y159.286 E0.01077
G1 X187.387 Y158.749 E0.02195
G1 X187.304 Y158.617 E0.00490
G1 X187.446 Y158.207 F7800.000
G1 X187.540 Y158.257
G1 F1200.000
G1 X188.444 Y159.161 E0.04103
G1 X188.924 Y159.558 E0.01999
G1 X189.437 Y159.883 E0.01948
G1 X189.690 Y160.002 E0.00898
G1 X187.357 Y157.669 E0.10590
G1 X187.199 Y157.333 E0.01189
G1 X187.082 Y156.990 E0.01164
G1 X190.369 Y160.277 E0.14916
G1 X190.913 Y160.416 E0.01802
G1 X186.943 Y156.446 E0.18018
G1 X186.883 Y155.982 E0.01501
G1 X191.523 Y160.622 E0.21056
G10 ; retract
G1 X196.210 Y152.776 F7800.000
G11 ; unretract
G1 F1200.000
G1 X195.273 Y151.839 E0.04253
G1 X194.802 Y151.449 E0.01961
G1 X194.262 Y151.106 E0.02053
G1 X194.006 Y150.976 E0.00922
G1 X196.361 Y153.331 E0.10690
G1 X196.519 Y153.667 E0.01189
G1 X196.636 Y154.010 E0.01164
G1 X193.358 Y150.733 E0.14873
G1 X193.104 Y150.650 E0.00858
G1 X192.817 Y150.595 E0.00939
G1 X196.775 Y154.554 E0.17966
G1 X196.835 Y155.018 E0.01501
G1 X192.340 Y150.523 E0.20399
G1 X191.909 Y150.496 E0.01388
G1 X196.857 Y155.444 E0.22458
G1 X196.857 Y155.807 E0.01165
G1 X196.852 Y155.844 E0.00119
G1 X195.107 Y154.099 E0.07919
G1 X195.229 Y154.405 E0.01057
G1 X195.304 Y154.700 E0.00978
G1 X196.807 Y156.203 E0.06820
G1 X196.749 Y156.549 E0.01126
G1 X195.373 Y155.173 E0.06245
G1 X195.404 Y155.500 E0.01054
G1 X195.394 Y155.599 E0.00319
G1 X196.666 Y156.871 E0.05772
G1 X196.573 Y157.182 E0.01043
G1 X195.359 Y155.968 E0.05510
G1 X195.342 Y156.153 E0.00596
G1 X195.301 Y156.314 E0.00532
G1 X196.455 Y157.469 E0.05240
G1 X196.326 Y157.743 E0.00975
G1 X195.214 Y156.631 E0.05047
G1 X195.099 Y156.921 E0.01000
G1 X196.189 Y158.011 E0.04947
G1 X196.035 Y158.261 E0.00943
G1 X194.961 Y157.187 E0.04873
G1 X194.811 Y157.441 E0.00947
G1 X195.866 Y158.496 E0.04788
G1 X195.683 Y158.717 E0.00922
G1 X194.643 Y157.678 E0.04717
G1 X194.454 Y157.893 E0.00919
G1 X195.499 Y158.938 E0.04745
G1 X195.297 Y159.140 E0.00917
G1 X194.260 Y158.104 E0.04705
G1 X194.033 Y158.280 E0.00925
G1 X195.076 Y159.324 E0.04737
G1 X194.855 Y159.507 E0.00922
G1 X193.805 Y158.457 E0.04766
G1 X193.545 Y158.601 E0.00954
G1 X194.614 Y159.670 E0.04850
G1 X194.367 Y159.827 E0.00940
G1 X193.277 Y158.738 E0.04943
G1 X193.164 Y158.796 E0.00409
G1 X192.983 Y158.848 E0.00603
G1 X194.102 Y159.967 E0.05078
G1 X193.827 Y160.096 E0.00975
G1 X192.670 Y158.939 E0.05252
G1 X192.523 Y158.982 E0.00491
G1 X192.327 Y159.000 E0.00632
G1 X193.541 Y160.214 E0.05510
G1 X193.230 Y160.307 E0.01043
G1 X191.958 Y159.035 E0.05772
G1 X191.859 Y159.045 E0.00318
G1 X191.532 Y159.014 E0.01054
G1 X192.908 Y160.390 E0.06245
G1 X192.797 Y160.418 E0.00367
G1 X192.562 Y160.448 E0.00761
G1 X191.055 Y158.941 E0.06838
G1 X190.554 Y158.796 E0.01675
G1 X190.455 Y158.745 E0.00358
G1 X192.203 Y160.493 E0.07934
G1 X191.803 Y160.498 E0.01283
G1 X186.861 Y155.556 E0.22430
G1 X186.866 Y155.156 E0.01283
G1 X188.611 Y156.901 E0.07920
G1 X188.489 Y156.595 E0.01057
G1 X188.414 Y156.300 E0.00977
G1 X186.911 Y154.797 E0.06820
G1 X186.941 Y154.562 E0.00761
G1 X186.969 Y154.451 E0.00367
G1 X188.345 Y155.827 E0.06245
G1 X188.314 Y155.500 E0.01054
G1 X188.324 Y155.401 E0.00318
G1 X187.052 Y154.129 E0.05772
G1 X187.144 Y153.818 E0.01043
G1 X188.358 Y155.032 E0.05510
G1 X188.377 Y154.836 E0.00632
G1 X188.420 Y154.689 E0.00491
G1 X187.262 Y153.532 E0.05252
G1 X187.392 Y153.257 E0.00975
G1 X188.511 Y154.375 E0.05078
G1 X188.563 Y154.195 E0.00603
G1 X188.621 Y154.081 E0.00409
G1 X187.532 Y152.992 E0.04943
G1 X187.689 Y152.745 E0.00940
G1 X188.758 Y153.814 E0.04850
G1 X188.902 Y153.554 E0.00954
G1 X187.850 Y152.502 E0.04775
G1 X188.030 Y152.278 E0.00923
G1 X189.079 Y153.326 E0.04760
G1 X189.255 Y153.099 E0.00925
G1 X188.226 Y152.069 E0.04673
G1 X188.422 Y151.861 E0.00918
G1 X189.466 Y152.905 E0.04740
G1 X189.681 Y152.716 E0.00919
G1 X188.642 Y151.676 E0.04717
G1 X188.863 Y151.493 E0.00922
G1 X189.918 Y152.548 E0.04788
G1 X190.172 Y152.398 E0.00947
G1 X189.098 Y151.324 E0.04873
G1 X189.348 Y151.170 E0.00943
G1 X190.439 Y152.261 E0.04951
G1 X190.736 Y152.154 E0.01014
G1 X189.615 Y151.033 E0.05086
G1 X189.890 Y150.904 E0.00975
G1 X191.043 Y152.056 E0.05230
G1 X191.382 Y151.991 E0.01109
G1 X190.177 Y150.786 E0.05471
G1 X190.488 Y150.693 E0.01043
G1 X191.759 Y151.963 E0.05766
G1 X191.866 Y151.956 E0.00346
G1 X192.186 Y151.986 E0.01032
G1 X190.810 Y150.610 E0.06246
G1 X191.156 Y150.552 E0.01126
G1 X192.663 Y152.059 E0.06838
G1 X193.164 Y152.204 E0.01675
G1 X193.263 Y152.255 E0.00358
G1 X191.402 Y150.394 E0.08447
G10 ; retract
G1 X178.920 Y148.013 F7800.000
G11 ; unretract
G1 F840.000
G1 X179.072 Y147.217 E0.02553
G1 X179.584 Y145.640 E0.05223
G1 X180.290 Y144.140 E0.05222
G1 X181.178 Y142.740 E0.05223
G1 X182.235 Y141.463 E0.05222
G1 X183.444 Y140.328 E0.05222
G1 X184.785 Y139.353 E0.05222
G1 X186.238 Y138.555 E0.05223
G1 X187.779 Y137.944 E0.05222
G1 X189.385 Y137.532 E0.05222
G1 X191.030 Y137.324 E0.05222
G1 X192.688 Y137.324 E0.05222
G1 X194.333 Y137.532 E0.05222
G1 X195.939 Y137.944 E0.05222
G1 X197.480 Y138.555 E0.05222
G1 X198.933 Y139.353 E0.05223
G1 X200.274 Y140.328 E0.05222
G1 X201.483 Y141.463 E0.05222
G1 X202.539 Y142.740 E0.05222
G1 X203.428 Y144.140 E0.05223
G1 X204.134 Y145.640 E0.05222
G1 X204.646 Y147.217 E0.05223
G1 X204.957 Y148.845 E0.05222
G1 X205.061 Y150.500 E0.05222
G1 X204.957 Y152.155 E0.05222
G1 X204.646 Y153.783 E0.05222
G1 X204.134 Y155.360 E0.05222
G1 X203.428 Y156.860 E0.05222
G1 X202.539 Y158.260 E0.05223
G1 X201.483 Y159.537 E0.05222
G1 X200.274 Y160.672 E0.05222
G1 X198.933 Y161.647 E0.05222
G1 X197.480 Y162.445 E0.05222
G1 X195.939 Y163.056 E0.05222
G1 X194.333 Y163.468 E0.05222
G1 X192.688 Y163.676 E0.05222
G1 X191.030 Y163.676 E0.05222
G1 X189.385 Y163.468 E0.05222
G1 X187.779 Y163.056 E0.05222
G1 X186.238 Y162.445 E0.05222
G1 X184.785 Y161.647 E0.05222
G1 X183.444 Y160.672 E0.05222
G1 X182.235 Y159.537 E0.05222
G1 X181.178 Y158.260 E0.05222
G1 X180.290 Y156.860 E0.05222
G1 X179.584 Y155.360 E0.05222
G1 X179.072 Y153.783 E0.05222
G1 X178.761 Y152.155 E0.05222
G1 X178.657 Y150.500 E0.05222
G1 X178.761 Y148.845 E0.05222
G1 X178.909 Y148.072 E0.02481
G1 X179.184 Y148.124 F7800.000
G1 F588.000
G1 X179.344 Y147.287 E0.02686
G1 X179.846 Y145.744 E0.05111
G1 X180.536 Y144.275 E0.05111
G1 X181.406 Y142.905 E0.05111
G1 X182.440 Y141.655 E0.05111
G1 X183.623 Y140.544 E0.05111
G1 X184.936 Y139.591 E0.05111
G1 X186.358 Y138.809 E0.05111
G1 X187.866 Y138.212 E0.05111
G1 X189.438 Y137.808 E0.05111
G1 X191.048 Y137.605 E0.05111
G1 X192.670 Y137.605 E0.05111
G1 X194.280 Y137.808 E0.05111
G1 X195.852 Y138.212 E0.05111
G1 X197.360 Y138.809 E0.05111
G1 X198.782 Y139.591 E0.05111
