; generated by PrusaSlicer 2.2.0+win64 on 2020-06-02 at 14:35:42 UTC

; 

; external perimeters extrusion width = 0.45mm
; perimeters extrusion width = 0.45mm
; infill extrusion width = 0.45mm
; solid infill extrusion width = 0.45mm
; top infill extrusion width = 0.40mm
; first layer extrusion width = 0.35mm

M107
T0 ; make sure the hotend is selected
M98 P/macros/PETGoffset  ; set z probe offset
M104 S255 ; start heating the hotend
M190 S80 ; heat the bed and wait
G28 ; home all axes
G29 ; bed calibration - RRF
M109 S255 ; finish heating the hotend
;M117 yBeltClamp
G21 ; set units to millimeters
G90 ; use absolute coordinates
M83 ; use relative distances for extrusion
; Filament gcode
G10 ; retract
G1 Z0.300 F7800.000
G1 X171.096 Y119.673
G11 ; unretract
G1 F1680.000
G1 X172.177 Y118.494 E0.05038
G1 X173.513 Y117.564 E0.05127
G1 X174.988 Y116.962 E0.05018
G1 X176.587 Y116.692 E0.05111
G1 X223.006 Y116.680 E1.46221
G1 X224.419 Y116.819 E0.04471
G1 X225.783 Y117.230 E0.04487
G1 X227.041 Y117.896 E0.04485
G1 X228.138 Y118.786 E0.04449
G1 X229.050 Y119.880 E0.04488
G1 X229.731 Y121.123 E0.04465
G1 X230.160 Y122.478 E0.04475
G1 X230.318 Y123.871 E0.04418
G1 X230.286 Y125.700 E0.05761
G1 X225.448 Y174.738 E1.55223
G1 X225.297 Y175.578 E0.02689
G1 X225.040 Y176.386 E0.02669
G1 X224.682 Y177.154 E0.02669
G1 X224.223 Y177.874 E0.02689
G1 X223.433 Y178.770 E0.03762
G1 X222.499 Y179.504 E0.03742
G1 X215.187 Y183.735 E0.26611
G1 X213.744 Y184.325 E0.04912
G1 X212.195 Y184.558 E0.04932
G1 X187.981 Y184.561 E0.76276
G1 X187.023 Y184.488 E0.03027
G1 X185.947 Y184.231 E0.03484
G1 X184.935 Y183.801 E0.03464
G1 X177.198 Y179.295 E0.28204
G1 X176.182 Y178.375 E0.04318
G1 X175.380 Y177.263 E0.04318
G1 X174.826 Y176.009 E0.04318
G1 X174.545 Y174.668 E0.04318
G1 X169.694 Y125.451 E1.55787
G1 X169.694 Y123.561 E0.05952
G1 X169.888 Y122.267 E0.04123
G1 X170.366 Y120.907 E0.04540
G1 X171.066 Y119.725 E0.04328
G1 X171.307 Y119.868 F7800.000
G1 F1680.000
G1 X172.371 Y118.697 E0.04983
G1 X173.660 Y117.804 E0.04941
G1 X175.076 Y117.229 E0.04814
G1 X176.618 Y116.971 E0.04926
G1 X223.006 Y116.961 E1.46124
G1 X224.368 Y117.095 E0.04310
G1 X225.679 Y117.490 E0.04314
G1 X226.888 Y118.132 E0.04312
G1 X227.947 Y118.992 E0.04296
G1 X228.827 Y120.050 E0.04335
G1 X229.478 Y121.247 E0.04292
G1 X229.888 Y122.550 E0.04304
G1 X230.038 Y123.896 E0.04266
G1 X230.006 Y125.676 E0.05608
G1 X225.169 Y174.702 E1.55185
G1 X225.024 Y175.512 E0.02592
G1 X224.776 Y176.291 E0.02573
G1 X224.429 Y177.030 E0.02573
G1 X223.990 Y177.718 E0.02573
G1 X223.236 Y178.570 E0.03584
G1 X222.335 Y179.276 E0.03603
G1 X215.049 Y183.491 E0.26517
G1 X213.665 Y184.056 E0.04709
G1 X212.180 Y184.278 E0.04728
G1 X187.981 Y184.280 E0.76228
G1 X187.069 Y184.211 E0.02884
G1 X186.034 Y183.965 E0.03351
G1 X185.061 Y183.550 E0.03331
G1 X177.351 Y179.060 E0.28105
G1 X176.387 Y178.182 E0.04108
G1 X175.621 Y177.119 E0.04127
G1 X175.092 Y175.920 E0.04127
G1 X174.824 Y174.638 E0.04127
G1 X169.975 Y125.438 E1.55734
G1 X169.973 Y123.586 E0.05834
G1 X170.160 Y122.337 E0.03977
G1 X170.624 Y121.018 E0.04405
G1 X171.276 Y119.919 E0.04023
G10 ; retract
G1 X181.868 Y166.063 F7800.000
G11 ; unretract
G1 F840.000
G1 X185.195 Y164.143 E0.12100
G1 X185.195 Y125.305 E1.22340
G1 X176.932 Y125.293 E0.26027
G1 X176.783 Y125.208 E0.00542
G1 X176.736 Y125.143 E0.00251
G1 X176.702 Y125.048 E0.00321
G1 X176.698 Y123.982 E0.03357
G1 X176.723 Y123.885 E0.00316
G1 X176.772 Y123.802 E0.00304
G1 X176.869 Y123.728 E0.00384
G1 X177.022 Y123.694 E0.00495
G1 X222.995 Y123.695 E1.44817
G1 X223.100 Y123.715 E0.00335
G1 X223.215 Y123.788 E0.00429
G1 X223.265 Y123.856 E0.00267
G1 X223.302 Y123.988 E0.00431
G1 X223.305 Y124.967 E0.03085
G1 X223.259 Y125.155 E0.00609
G1 X223.213 Y125.213 E0.00233
G1 X223.093 Y125.286 E0.00445
G1 X222.967 Y125.305 E0.00402
G1 X214.805 Y125.305 E0.25708
G1 X214.805 Y164.143 E1.22340
G1 X218.475 Y166.261 E0.13348
G1 X218.475 Y173.738 E0.23552
G1 X211.879 Y177.547 E0.23994
G1 X188.121 Y177.547 E0.74836
G1 X181.525 Y173.738 E0.23994
G1 X181.525 Y166.261 E0.23552
G1 X181.816 Y166.093 E0.01059
G1 X181.676 Y165.850 F7800.000
G1 F588.000
G1 X184.914 Y163.980 E0.11779
G1 X184.914 Y125.586 E1.20945
G1 X177.011 Y125.586 E0.24896
G1 X176.860 Y125.567 E0.00478
G1 X176.699 Y125.500 E0.00550
G1 X176.578 Y125.404 E0.00487
G1 X176.485 Y125.276 E0.00497
G1 X176.426 Y125.110 E0.00556
G1 X176.418 Y123.947 E0.03662
G1 X176.460 Y123.776 E0.00554
G1 X176.550 Y123.626 E0.00550
G1 X176.639 Y123.540 E0.00391
G1 X176.749 Y123.472 E0.00408
G1 X176.888 Y123.426 E0.00460
G1 X177.008 Y123.414 E0.00381
G1 X223.011 Y123.414 E1.44909
G1 X223.218 Y123.457 E0.00666
G1 X223.397 Y123.571 E0.00669
G1 X223.526 Y123.744 E0.00679
G1 X223.582 Y123.949 E0.00670
G1 X223.586 Y124.987 E0.03270
G1 X223.559 Y125.171 E0.00586
G1 X223.501 Y125.300 E0.00444
G1 X223.413 Y125.413 E0.00451
G1 X223.301 Y125.501 E0.00451
G1 X223.172 Y125.558 E0.00444
G1 X222.987 Y125.586 E0.00587
G1 X215.086 Y125.586 E0.24890
G1 X215.086 Y163.980 E1.20945
G1 X218.756 Y166.099 E0.13348
G1 X218.756 Y173.900 E0.24573
G1 X211.954 Y177.827 E0.24741
G1 X188.046 Y177.827 E0.75310
G1 X181.244 Y173.900 E0.24741
G1 X181.244 Y166.099 E0.24573
G1 X181.624 Y165.880 E0.01380
G1 X182.068 Y165.927 F7800.000
G10 ; retract
G1 X182.995 Y174.457
G11 ; unretract
G1 F1200.000
G1 X181.763 Y173.226 E0.05490
G1 X181.763 Y172.829 E0.01252
G1 X183.589 Y174.655 E0.08141
G1 X184.529 Y175.197 E0.03420
G1 X181.763 Y172.431 E0.12330
G1 X181.763 Y172.034 E0.01252
G1 X185.469 Y175.740 E0.16519
G1 X186.408 Y176.282 E0.03420
G1 X181.763 Y171.637 E0.20708
G1 X181.763 Y171.240 E0.01252
G1 X187.348 Y176.825 E0.24897
G1 X188.185 Y177.308 E0.03047
G1 X188.229 Y177.308 E0.00136
G1 X181.763 Y170.843 E0.28822
G1 X181.763 Y170.446 E0.01252
G1 X188.626 Y177.308 E0.30593
G1 X189.023 Y177.308 E0.01252
G1 X181.763 Y170.049 E0.32364
G1 X181.763 Y169.651 E0.01252
G1 X189.420 Y177.308 E0.34134
G1 X189.817 Y177.308 E0.01252
G1 X181.763 Y169.254 E0.35905
G1 X181.763 Y168.857 E0.01252
G1 X190.214 Y177.308 E0.37675
G1 X190.612 Y177.308 E0.01252
G1 X181.763 Y168.460 E0.39446
G1 X181.763 Y168.063 E0.01252
G1 X191.009 Y177.308 E0.41216
G1 X191.406 Y177.308 E0.01252
G1 X181.763 Y167.666 E0.42987
G1 X181.763 Y167.269 E0.01252
G1 X191.803 Y177.308 E0.44757
G1 X192.200 Y177.308 E0.01252
G1 X181.763 Y166.871 E0.46528
G1 X181.763 Y166.474 E0.01252
G1 X192.597 Y177.308 E0.48298
G1 X192.994 Y177.308 E0.01252
G1 X181.968 Y166.281 E0.49159
G1 X182.219 Y166.136 E0.00916
G1 X193.392 Y177.308 E0.49807
G1 X193.789 Y177.308 E0.01252
G1 X182.471 Y165.990 E0.50455
G1 X182.723 Y165.845 E0.00916
G1 X194.186 Y177.308 E0.51103
G1 X194.583 Y177.308 E0.01252
G1 X182.975 Y165.700 E0.51751
G1 X183.226 Y165.554 E0.00916
G1 X194.980 Y177.308 E0.52399
G1 X195.377 Y177.308 E0.01252
G1 X183.478 Y165.409 E0.53047
G1 X183.730 Y165.264 E0.00916
G1 X195.774 Y177.308 E0.53695
G1 X196.172 Y177.308 E0.01252
G1 X183.982 Y165.118 E0.54343
G1 X184.234 Y164.973 E0.00916
G1 X196.569 Y177.308 E0.54992
G1 X196.966 Y177.308 E0.01252
G1 X184.485 Y164.828 E0.55640
G1 X184.737 Y164.682 E0.00916
G1 X197.363 Y177.308 E0.56288
G1 X197.760 Y177.308 E0.01252
G1 X184.989 Y164.537 E0.56936
G1 X185.241 Y164.391 E0.00916
G1 X198.157 Y177.308 E0.57584
G1 X198.554 Y177.308 E0.01252
G1 X185.433 Y164.187 E0.58496
G1 X185.433 Y163.790 E0.01252
G1 X198.952 Y177.308 E0.60266
G1 X199.349 Y177.308 E0.01252
G1 X185.433 Y163.393 E0.62037
G1 X185.433 Y162.995 E0.01252
G1 X199.746 Y177.308 E0.63807
G1 X200.143 Y177.308 E0.01252
G1 X185.433 Y162.598 E0.65578
G1 X185.433 Y162.201 E0.01252
G1 X200.540 Y177.308 E0.67348
G1 X200.937 Y177.308 E0.01252
G1 X185.433 Y161.804 E0.69119
G1 X185.433 Y161.407 E0.01252
G1 X201.335 Y177.308 E0.70889
G1 X201.732 Y177.308 E0.01252
G1 X185.433 Y161.010 E0.72660
G1 X185.433 Y160.613 E0.01252
G1 X202.129 Y177.308 E0.74430
G1 X202.526 Y177.308 E0.01252
G1 X185.433 Y160.215 E0.76201
G1 X185.433 Y159.818 E0.01252
G1 X202.923 Y177.308 E0.77972
G1 X203.320 Y177.308 E0.01252
G1 X185.433 Y159.421 E0.79742
G1 X185.433 Y159.024 E0.01252
G1 X203.717 Y177.308 E0.81513
G1 X204.115 Y177.308 E0.01252
G1 X185.433 Y158.627 E0.83283
G1 X185.433 Y158.230 E0.01252
G1 X204.512 Y177.308 E0.85054
G1 X204.909 Y177.308 E0.01252
G1 X185.433 Y157.832 E0.86824
G1 X185.433 Y157.435 E0.01252
G1 X205.306 Y177.308 E0.88595
G1 X205.703 Y177.308 E0.01252
G1 X185.433 Y157.038 E0.90365
G1 X185.433 Y156.641 E0.01252
G1 X206.100 Y177.308 E0.92136
G1 X206.497 Y177.308 E0.01252
G1 X185.433 Y156.244 E0.93906
G1 X185.433 Y155.847 E0.01252
G1 X206.895 Y177.308 E0.95677
G1 X207.292 Y177.308 E0.01252
G1 X185.433 Y155.450 E0.97447
G1 X185.433 Y155.052 E0.01252
G1 X207.689 Y177.308 E0.99218
G1 X208.086 Y177.308 E0.01252
G1 X185.433 Y154.655 E1.00988
G1 X185.433 Y154.258 E0.01252
G1 X208.483 Y177.308 E1.02759
G1 X208.880 Y177.308 E0.01252
G1 X185.433 Y153.861 E1.04529
G1 X185.433 Y153.464 E0.01252
G1 X209.277 Y177.308 E1.06300
G1 X209.675 Y177.308 E0.01252
G1 X185.433 Y153.067 E1.08070
G1 X185.433 Y152.670 E0.01252
G1 X210.072 Y177.308 E1.09841
G1 X210.469 Y177.308 E0.01252
G1 X185.433 Y152.272 E1.11612
G1 X185.433 Y151.875 E0.01252
G1 X210.866 Y177.308 E1.13382
G1 X211.263 Y177.308 E0.01252
G1 X185.433 Y151.478 E1.15153
G1 X185.433 Y151.081 E0.01252
G1 X211.660 Y177.308 E1.16923
G1 X211.815 Y177.308 E0.00486
G1 X211.969 Y177.219 E0.00560
G1 X185.433 Y150.684 E1.18297
G1 X185.433 Y150.287 E0.01252
G1 X212.220 Y177.074 E1.19420
G1 X212.472 Y176.928 E0.00916
G1 X185.433 Y149.890 E1.20542
G1 X185.433 Y149.492 E0.01252
G1 X212.724 Y176.783 E1.21665
G1 X212.976 Y176.638 E0.00916
G1 X185.433 Y149.095 E1.22787
G1 X185.433 Y148.698 E0.01252
G1 X213.228 Y176.492 E1.23910
G1 X213.479 Y176.347 E0.00916
G1 X185.433 Y148.301 E1.25032
G1 X185.433 Y147.904 E0.01252
G1 X213.731 Y176.202 E1.26155
G1 X213.983 Y176.056 E0.00916
G1 X185.433 Y147.507 E1.27277
G1 X185.433 Y147.109 E0.01252
G1 X214.235 Y175.911 E1.28400
G1 X214.486 Y175.766 E0.00916
G1 X185.433 Y146.712 E1.29522
G1 X185.433 Y146.315 E0.01252
G1 X214.738 Y175.620 E1.30645
G1 X214.990 Y175.475 E0.00916
G1 X185.433 Y145.918 E1.31767
G1 X185.433 Y145.521 E0.01252
G1 X215.242 Y175.329 E1.32890
G1 X215.494 Y175.184 E0.00916
G1 X185.433 Y145.124 E1.34012
G1 X185.433 Y144.727 E0.01252
G1 X215.745 Y175.039 E1.35134
G1 X215.997 Y174.893 E0.00916
G1 X185.433 Y144.329 E1.36257
G1 X185.433 Y143.932 E0.01252
G1 X216.249 Y174.748 E1.37379
G1 X216.501 Y174.603 E0.00916
G1 X185.433 Y143.535 E1.38502
G1 X185.433 Y143.138 E0.01252
G1 X216.752 Y174.457 E1.39624
G1 X217.004 Y174.312 E0.00916
G1 X185.433 Y142.741 E1.40747
G1 X185.433 Y142.344 E0.01252
G1 X217.256 Y174.166 E1.41869
G1 X217.508 Y174.021 E0.00916
G1 X185.433 Y141.947 E1.42992
G1 X185.433 Y141.549 E0.01252
G1 X217.760 Y173.876 E1.44114
G1 X218.011 Y173.730 E0.00916
G1 X185.433 Y141.152 E1.45237
G1 X185.433 Y140.755 E0.01252
G1 X218.237 Y173.558 E1.46241
G1 X218.237 Y173.161 E0.01252
G1 X185.433 Y140.358 E1.46241
G1 X185.433 Y139.961 E0.01252
G1 X218.237 Y172.764 E1.46241
G1 X218.237 Y172.367 E0.01252
G1 X185.433 Y139.564 E1.46241
G1 X185.433 Y139.167 E0.01252
G1 X218.237 Y171.970 E1.46241
G1 X218.237 Y171.573 E0.01252
G1 X185.433 Y138.769 E1.46241
G1 X185.433 Y138.372 E0.01252
G1 X218.237 Y171.176 E1.46241
G1 X218.237 Y170.778 E0.01252
G1 X185.433 Y137.975 E1.46241
G1 X185.433 Y137.578 E0.01252
G1 X218.237 Y170.381 E1.46241
G1 X218.237 Y169.984 E0.01252
G1 X185.433 Y137.181 E1.46241
G1 X185.433 Y136.784 E0.01252
G1 X218.237 Y169.587 E1.46241
G1 X218.237 Y169.190 E0.01252
G1 X185.433 Y136.386 E1.46241
G1 X185.433 Y135.989 E0.01252
G1 X218.237 Y168.793 E1.46241
G1 X218.237 Y168.396 E0.01252
G1 X185.433 Y135.592 E1.46241
G1 X185.433 Y135.195 E0.01252
G1 X218.363 Y168.125 E1.46804
G10 ; retract
G1 X217.866 Y166.039 F7800.000
G11 ; unretract
G1 F1200.000
G1 X218.237 Y166.410 E0.01652
G1 X218.237 Y166.807 E0.01252
G1 X217.271 Y165.842 E0.04303
G1 X216.332 Y165.299 E0.03420
G1 X218.237 Y167.204 E0.08492
G1 X218.237 Y167.601 E0.01252
G1 X215.392 Y164.757 E0.12681
G1 X214.567 Y164.280 E0.03004
G1 X214.567 Y163.931 E0.01100
G1 X185.433 Y134.798 E1.29880
G1 X185.433 Y134.401 E0.01252
G1 X214.567 Y163.534 E1.29880
G1 X214.567 Y163.137 E0.01252
G1 X185.433 Y134.004 E1.29880
G1 X185.433 Y133.606 E0.01252
G1 X214.567 Y162.740 E1.29880
G1 X214.567 Y162.343 E0.01252
G1 X185.433 Y133.209 E1.29880
G1 X185.433 Y132.812 E0.01252
G1 X214.567 Y161.946 E1.29880
G1 X214.567 Y161.549 E0.01252
G1 X185.433 Y132.415 E1.29880
G1 X185.433 Y132.018 E0.01252
G1 X214.567 Y161.151 E1.29880
G1 X214.567 Y160.754 E0.01252
G1 X185.433 Y131.621 E1.29880
G1 X185.433 Y131.224 E0.01252
G1 X214.567 Y160.357 E1.29880
G1 X214.567 Y159.960 E0.01252
G1 X185.433 Y130.826 E1.29880
G1 X185.433 Y130.429 E0.01252
G1 X214.567 Y159.563 E1.29880
G1 X214.567 Y159.166 E0.01252
G1 X185.433 Y130.032 E1.29880
G1 X185.433 Y129.635 E0.01252
G1 X214.567 Y158.768 E1.29880
G1 X214.567 Y158.371 E0.01252
G1 X185.433 Y129.238 E1.29880
G1 X185.433 Y128.841 E0.01252
G1 X214.567 Y157.974 E1.29880
G1 X214.567 Y157.577 E0.01252
G1 X185.433 Y128.444 E1.29880
G1 X185.433 Y128.046 E0.01252
G1 X214.567 Y157.180 E1.29880
G1 X214.567 Y156.783 E0.01252
G1 X185.433 Y127.649 E1.29880
G1 X185.433 Y127.252 E0.01252
G1 X214.567 Y156.386 E1.29880
G1 X214.567 Y155.988 E0.01252
G1 X185.433 Y126.855 E1.29880
G1 X185.433 Y126.458 E0.01252
G1 X214.567 Y155.591 E1.29880
G1 X214.567 Y155.194 E0.01252
G1 X185.433 Y126.061 E1.29880
G1 X185.433 Y125.663 E0.01252
G1 X214.567 Y154.797 E1.29880
G1 X214.567 Y154.400 E0.01252
G1 X184.100 Y123.933 E1.35824
G1 X184.497 Y123.933 E0.01252
G1 X214.567 Y154.003 E1.34054
G1 X214.567 Y153.606 E0.01252
G1 X184.894 Y123.933 E1.32283
G1 X185.291 Y123.933 E0.01252
G1 X214.567 Y153.208 E1.30513
G1 X214.567 Y152.811 E0.01252
G1 X185.689 Y123.933 E1.28742
G1 X186.086 Y123.933 E0.01252
G1 X214.567 Y152.414 E1.26972
G1 X214.567 Y152.017 E0.01252
G1 X186.483 Y123.933 E1.25201
G1 X186.880 Y123.933 E0.01252
G1 X214.567 Y151.620 E1.23430
G1 X214.567 Y151.223 E0.01252
G1 X187.277 Y123.933 E1.21660
G1 X187.674 Y123.933 E0.01252
G1 X214.567 Y150.826 E1.19889
G1 X214.567 Y150.428 E0.01252
G1 X188.071 Y123.933 E1.18119
G1 X188.469 Y123.933 E0.01252
G1 X214.567 Y150.031 E1.16348
G1 X214.567 Y149.634 E0.01252
G1 X188.866 Y123.933 E1.14578
G1 X189.263 Y123.933 E0.01252
G1 X214.567 Y149.237 E1.12807
G1 X214.567 Y148.840 E0.01252
G1 X189.660 Y123.933 E1.11037
G1 X190.057 Y123.933 E0.01252
G1 X214.567 Y148.443 E1.09266
G1 X214.567 Y148.045 E0.01252
G1 X190.454 Y123.933 E1.07496
G1 X190.852 Y123.933 E0.01252
G1 X214.567 Y147.648 E1.05725
G1 X214.567 Y147.251 E0.01252
G1 X191.249 Y123.933 E1.03954
G1 X191.646 Y123.933 E0.01252
G1 X214.567 Y146.854 E1.02184
G1 X214.567 Y146.457 E0.01252
G1 X192.043 Y123.933 E1.00413
G1 X192.440 Y123.933 E0.01252
G1 X214.567 Y146.060 E0.98643
G1 X214.567 Y145.663 E0.01252
G1 X192.837 Y123.933 E0.96872
G1 X193.234 Y123.933 E0.01252
G1 X214.567 Y145.265 E0.95102
G1 X214.567 Y144.868 E0.01252
G1 X193.632 Y123.933 E0.93331
G1 X194.029 Y123.933 E0.01252
G1 X214.567 Y144.471 E0.91561
G1 X214.567 Y144.074 E0.01252
G1 X194.426 Y123.933 E0.89790
G1 X194.823 Y123.933 E0.01252
G1 X214.567 Y143.677 E0.88020
G1 X214.567 Y143.280 E0.01252
G1 X195.220 Y123.933 E0.86249
G1 X195.617 Y123.933 E0.01252
G1 X214.567 Y142.883 E0.84478
G1 X214.567 Y142.485 E0.01252
G1 X196.015 Y123.933 E0.82708
G1 X196.412 Y123.933 E0.01252
G1 X214.567 Y142.088 E0.80937
G1 X214.567 Y141.691 E0.01252
G1 X196.809 Y123.933 E0.79167
G1 X197.206 Y123.933 E0.01252
G1 X214.567 Y141.294 E0.77396
G1 X214.567 Y140.897 E0.01252
G1 X197.603 Y123.933 E0.75626
G1 X198.000 Y123.933 E0.01252
G1 X214.567 Y140.500 E0.73855
G1 X214.567 Y140.103 E0.01252
G1 X198.397 Y123.933 E0.72085
G1 X198.795 Y123.933 E0.01252
G1 X214.567 Y139.705 E0.70314
G1 X214.567 Y139.308 E0.01252
G1 X199.192 Y123.933 E0.68544
G1 X199.589 Y123.933 E0.01252
G1 X214.567 Y138.911 E0.66773
G1 X214.567 Y138.514 E0.01252
G1 X199.986 Y123.933 E0.65002
G1 X200.383 Y123.933 E0.01252
G1 X214.567 Y138.117 E0.63232
G1 X214.567 Y137.720 E0.01252
