; generated by PrusaSlicer 2.2.0+win64 on 2020-06-20 at 19:58:41 UTC

; 

; external perimeters extrusion width = 0.45mm
; perimeters extrusion width = 0.45mm
; infill extrusion width = 0.45mm
; solid infill extrusion width = 0.45mm
; top infill extrusion width = 0.40mm
; first layer extrusion width = 0.37mm

M107
T0
M98 P/macros/PLA offset  ; set z probe offset for pla
M190 S65
M104 S190
G28                 ; home all axes
G29                 ; bed calibration
M109 S190
;M117 Printing BLTouchMount
G21 ; set units to millimeters
G90 ; use absolute coordinates
M83 ; use relative distances for extrusion
; Filament gcode
G10 ; retract
G1 Z0.350 F7800.000
G1 X64.406 Y114.611
G11 ; unretract
G1 F2100.000
G1 X64.901 Y113.785 E0.04095
G1 X65.467 Y113.068 E0.03887
G1 X66.141 Y112.404 E0.04025
G1 X66.863 Y111.853 E0.03863
G1 X67.686 Y111.374 E0.04054
G1 X68.528 Y111.018 E0.03889
G1 X69.432 Y110.762 E0.03997
G1 X70.321 Y110.627 E0.03826
G1 X107.048 Y110.598 E1.56260
G1 X108.510 Y110.755 E0.06254
G1 X109.974 Y111.224 E0.06543
G1 X111.231 Y111.932 E0.06138
G1 X112.385 Y112.929 E0.06487
G1 X134.661 Y139.241 E1.46680
G1 X135.378 Y140.255 E0.05286
G1 X135.903 Y141.345 E0.05145
G1 X136.254 Y142.558 E0.05374
G1 X136.396 Y143.918 E0.05816
G1 X136.397 Y182.047 E1.62226
G1 X136.340 Y182.914 E0.03700
G1 X136.182 Y183.769 E0.03699
G1 X135.920 Y184.613 E0.03759
G1 X135.572 Y185.394 E0.03636
G1 X135.057 Y186.245 E0.04232
G1 X134.455 Y186.995 E0.04094
G1 X133.746 Y187.675 E0.04179
G1 X132.965 Y188.246 E0.04116
G1 X132.116 Y188.712 E0.04120
G1 X131.197 Y189.067 E0.04195
G1 X130.250 Y189.296 E0.04143
G1 X129.254 Y189.399 E0.04261
G1 X75.748 Y189.399 E2.27647
G1 X74.641 Y189.280 E0.04736
G1 X69.414 Y188.234 E0.22681
G1 X68.528 Y187.982 E0.03918
G1 X67.642 Y187.604 E0.04099
G1 X66.851 Y187.138 E0.03905
G1 X66.071 Y186.534 E0.04198
G1 X65.401 Y185.856 E0.04056
G1 X64.787 Y185.043 E0.04338
G1 X64.272 Y184.113 E0.04523
G1 X63.921 Y183.206 E0.04136
G1 X63.686 Y182.226 E0.04287
G1 X63.589 Y181.299 E0.03966
G1 X63.583 Y117.922 E2.69649
G1 X63.642 Y117.064 E0.03656
G1 X63.802 Y116.213 E0.03687
G1 X64.385 Y114.667 E0.07030
G1 X64.086 Y116.282 F7800.000
G1 F2100.000
G1 X64.671 Y114.734 E0.07039
G1 X65.149 Y113.942 E0.03936
G1 X65.693 Y113.254 E0.03731
G1 X66.343 Y112.616 E0.03875
G1 X67.041 Y112.086 E0.03728
G1 X67.835 Y111.627 E0.03903
G1 X68.642 Y111.288 E0.03727
G1 X69.513 Y111.044 E0.03847
G1 X70.372 Y110.916 E0.03693
G1 X107.048 Y110.890 E1.56044
G1 X108.454 Y111.042 E0.06019
G1 X109.862 Y111.494 E0.06289
G1 X111.071 Y112.176 E0.05906
G1 X112.178 Y113.136 E0.06233
G1 X134.437 Y139.428 E1.46571
G1 X135.129 Y140.408 E0.05102
G1 X135.634 Y141.461 E0.04970
G1 X135.968 Y142.622 E0.05141
G1 X136.104 Y143.922 E0.05562
G1 X136.105 Y182.046 E1.62201
G1 X135.897 Y183.701 E0.07097
G1 X135.307 Y185.270 E0.07135
G1 X134.814 Y186.083 E0.04044
G1 X134.234 Y186.804 E0.03934
G1 X133.555 Y187.453 E0.03998
G1 X132.801 Y188.004 E0.03975
G1 X131.988 Y188.449 E0.03941
G1 X131.105 Y188.789 E0.04027
G1 X130.195 Y189.008 E0.03983
G1 X129.237 Y189.107 E0.04098
G1 X75.759 Y189.107 E2.27532
G1 X74.692 Y188.992 E0.04562
G1 X69.474 Y187.948 E0.22641
G1 X68.620 Y187.705 E0.03781
G1 X67.763 Y187.337 E0.03966
G1 X67.004 Y186.889 E0.03749
G1 X66.254 Y186.305 E0.04043
G1 X65.612 Y185.654 E0.03891
G1 X65.023 Y184.870 E0.04173
G1 X64.533 Y183.981 E0.04319
G1 X64.195 Y183.103 E0.04002
G1 X63.972 Y182.162 E0.04117
G1 X63.881 Y181.271 E0.03809
G1 X63.875 Y117.930 E2.69495
G1 X64.079 Y116.341 E0.06814
G10 ; retract
G1 X81.514 Y160.520 F7800.000
G11 ; unretract
G1 F3000.000
G1 X96.466 Y160.520 E0.63617
G1 X96.466 Y167.883 E0.31327
G1 X96.587 Y167.922 E0.00542
G1 X96.683 Y167.790 E0.00696
G1 X96.868 Y167.616 E0.01078
G1 X97.232 Y167.385 E0.01834
G1 X97.642 Y167.252 E0.01834
G1 X97.893 Y167.221 E0.01078
G1 X98.308 Y167.247 E0.01769
G1 X98.539 Y167.306 E0.01014
G1 X98.760 Y167.394 E0.01013
G1 X99.125 Y167.625 E0.01834
G1 X99.430 Y167.950 E0.01898
G1 X99.637 Y168.327 E0.01833
G1 X99.716 Y168.568 E0.01078
G1 X99.770 Y168.996 E0.01834
G1 X99.716 Y169.424 E0.01834
G1 X99.642 Y169.650 E0.01014
G1 X99.541 Y169.866 E0.01013
G1 X99.296 Y170.202 E0.01769
G1 X99.112 Y170.376 E0.01078
G1 X98.748 Y170.607 E0.01834
G1 X98.338 Y170.740 E0.01834
G1 X98.086 Y170.771 E0.01078
G1 X97.671 Y170.745 E0.01769
G1 X97.441 Y170.686 E0.01014
G1 X97.219 Y170.598 E0.01013
G1 X96.855 Y170.368 E0.01834
G1 X96.466 Y169.953 E0.02420
G1 X96.466 Y176.472 E0.27738
G1 X81.514 Y176.472 E0.63617
G1 X81.514 Y170.109 E0.27072
G1 X81.393 Y170.070 E0.00542
G1 X81.296 Y170.202 E0.00696
G1 X81.112 Y170.376 E0.01078
G1 X80.748 Y170.607 E0.01834
G1 X80.338 Y170.740 E0.01834
G1 X80.086 Y170.771 E0.01077
G1 X79.671 Y170.745 E0.01769
G1 X79.441 Y170.686 E0.01014
G1 X79.219 Y170.598 E0.01014
G1 X78.855 Y170.368 E0.01834
G1 X78.550 Y170.042 E0.01898
G1 X78.342 Y169.665 E0.01834
G1 X78.264 Y169.424 E0.01078
G1 X78.210 Y168.996 E0.01834
G1 X78.264 Y168.568 E0.01834
G1 X78.338 Y168.342 E0.01014
G1 X78.439 Y168.126 E0.01014
G1 X78.683 Y167.790 E0.01769
G1 X78.868 Y167.616 E0.01078
G1 X79.232 Y167.386 E0.01834
G1 X79.642 Y167.252 E0.01834
G1 X79.893 Y167.221 E0.01077
G1 X80.308 Y167.247 E0.01769
G1 X80.539 Y167.306 E0.01014
G1 X80.760 Y167.394 E0.01014
G1 X81.124 Y167.625 E0.01834
G1 X81.514 Y168.039 E0.02420
G1 X81.514 Y160.580 E0.31737
G10 ; retract
G1 X96.692 Y168.276 F7800.000
G11 ; unretract
G1 F600.000
G1 X96.904 Y167.984 E0.01534
G1 X97.048 Y167.849 E0.00843
G1 X97.358 Y167.652 E0.01559
G1 X97.706 Y167.539 E0.01559
G1 X97.902 Y167.514 E0.00842
G1 X98.262 Y167.537 E0.01534
G1 X98.627 Y167.655 E0.01632
G1 X98.937 Y167.852 E0.01559
G1 X99.191 Y168.123 E0.01584
G1 X99.368 Y168.444 E0.01559
G1 X99.429 Y168.632 E0.00843
G1 X99.475 Y168.996 E0.01559
G1 X99.429 Y169.360 E0.01559
G1 X99.288 Y169.716 E0.01632
G1 X99.076 Y170.008 E0.01534
G1 X98.932 Y170.144 E0.00843
G1 X98.622 Y170.340 E0.01559
G1 X98.274 Y170.453 E0.01559
G1 X98.077 Y170.478 E0.00842
G1 X97.717 Y170.455 E0.01534
G1 X97.353 Y170.337 E0.01632
G1 X97.043 Y170.140 E0.01559
G1 X96.788 Y169.869 E0.01584
G1 X96.612 Y169.548 E0.01559
G1 X96.551 Y169.360 E0.00843
G1 X96.505 Y168.996 E0.01559
G1 X96.551 Y168.632 E0.01559
G1 X96.666 Y168.330 E0.01378
G1 X96.505 Y167.967 F7800.000
G1 X96.174 Y168.330
G1 F2700.000
G1 X96.174 Y176.180 E0.33398
G1 X81.806 Y176.180 E0.61129
G1 X81.806 Y160.812 E0.65383
G1 X96.174 Y160.812 E0.61129
G1 X96.174 Y168.270 E0.31730
G1 X96.568 Y168.394 F7800.000
G10 ; retract
G1 X81.475 Y168.996
G11 ; unretract
G1 F600.000
G1 X81.429 Y169.360 E0.01559
G1 X81.370 Y169.542 E0.00818
G1 X81.288 Y169.716 E0.00818
G1 X81.076 Y170.008 E0.01534
G1 X80.932 Y170.144 E0.00843
G1 X80.622 Y170.340 E0.01559
G1 X80.274 Y170.453 E0.01559
G1 X80.077 Y170.478 E0.00842
G1 X79.717 Y170.455 E0.01534
G1 X79.531 Y170.408 E0.00818
G1 X79.353 Y170.337 E0.00818
G1 X79.043 Y170.140 E0.01559
G1 X78.788 Y169.869 E0.01584
G1 X78.612 Y169.548 E0.01559
G1 X78.551 Y169.360 E0.00843
G1 X78.505 Y168.996 E0.01559
G1 X78.551 Y168.632 E0.01559
G1 X78.610 Y168.450 E0.00818
G1 X78.692 Y168.276 E0.00818
G1 X78.904 Y167.984 E0.01534
G1 X79.048 Y167.849 E0.00843
G1 X79.357 Y167.652 E0.01559
G1 X79.706 Y167.539 E0.01559
G1 X79.902 Y167.514 E0.00842
G1 X80.262 Y167.537 E0.01534
G1 X80.448 Y167.585 E0.00818
G1 X80.627 Y167.655 E0.00818
G1 X80.937 Y167.852 E0.01559
G1 X81.191 Y168.123 E0.01584
G1 X81.368 Y168.444 E0.01559
G1 X81.429 Y168.632 E0.00843
G1 X81.468 Y168.937 E0.01304
G1 X81.789 Y169.186 F7800.000
G10 ; retract
G1 X70.643 Y160.750
G11 ; unretract
G1 F3000.000
G1 X70.643 Y155.026 E0.24352
G1 X70.658 Y154.911 E0.00494
G1 X70.749 Y154.749 E0.00789
G1 X70.883 Y154.670 E0.00663
G1 X70.983 Y154.651 E0.00433
G1 X107.061 Y154.663 E1.53499
G1 X107.150 Y154.691 E0.00395
G1 X107.239 Y154.761 E0.00484
G1 X107.299 Y154.843 E0.00434
G1 X107.337 Y155.025 E0.00791
G1 X107.337 Y180.651 E1.09028
G1 X129.012 Y180.651 E0.92220
G1 X129.136 Y180.686 E0.00549
G1 X129.208 Y180.732 E0.00366
G1 X129.268 Y180.795 E0.00369
G1 X129.320 Y180.898 E0.00492
G1 X129.336 Y181.025 E0.00542
G1 X129.330 Y182.038 E0.04310
G1 X129.303 Y182.144 E0.00465
G1 X129.219 Y182.253 E0.00588
G1 X129.136 Y182.306 E0.00420
G1 X129.012 Y182.341 E0.00549
G1 X75.983 Y182.341 E2.25617
G1 X75.883 Y182.322 E0.00433
G1 X75.780 Y182.269 E0.00493
G1 X75.664 Y182.109 E0.00841
G1 X75.612 Y181.341 E0.03276
G1 X70.983 Y181.341 E0.19695
G1 X70.883 Y181.322 E0.00433
G1 X70.780 Y181.269 E0.00493
G1 X70.712 Y181.198 E0.00420
G1 X70.661 Y181.103 E0.00459
G1 X70.643 Y180.966 E0.00587
G1 X70.643 Y160.810 E0.85759
G1 X70.351 Y160.810 F7800.000
G1 F2700.000
G1 X70.351 Y155.008 E0.24685
G1 X70.372 Y154.838 E0.00730
G1 X70.431 Y154.689 E0.00680
G1 X70.529 Y154.555 E0.00705
G1 X70.650 Y154.456 E0.00667
G1 X70.793 Y154.390 E0.00668
G1 X70.956 Y154.359 E0.00706
G1 X107.106 Y154.370 E1.53808
G1 X107.267 Y154.421 E0.00716
G1 X107.454 Y154.559 E0.00993
G1 X107.552 Y154.694 E0.00706
G1 X107.608 Y154.840 E0.00666
G1 X107.629 Y155.007 E0.00718
G1 X107.629 Y180.359 E1.07861
G1 X129.030 Y180.359 E0.91054
G1 X129.261 Y180.419 E0.01017
G1 X129.396 Y180.505 E0.00680
G1 X129.506 Y180.622 E0.00681
G1 X129.607 Y180.833 E0.00995
G1 X129.629 Y181.007 E0.00748
G1 X129.623 Y182.075 E0.04546
G1 X129.581 Y182.236 E0.00707
G1 X129.457 Y182.431 E0.00983
G1 X129.400 Y182.485 E0.00331
G1 X129.261 Y182.573 E0.00701
G1 X129.030 Y182.633 E0.01017
G1 X75.956 Y182.633 E2.25813
G1 X75.793 Y182.602 E0.00706
G1 X75.650 Y182.536 E0.00668
G1 X75.474 Y182.371 E0.01027
G1 X75.375 Y182.166 E0.00970
G1 X75.339 Y181.633 E0.02269
G1 X70.956 Y181.633 E0.18649
G1 X70.793 Y181.602 E0.00706
G1 X70.587 Y181.491 E0.00996
G1 X70.474 Y181.371 E0.00701
G1 X70.373 Y181.160 E0.00993
G1 X70.351 Y180.984 E0.00754
G1 X70.351 Y160.870 E0.85582
G1 X70.697 Y160.609 F7800.000
G10 ; retract
G1 X70.760 Y163.046
G11 ; unretract
G1 F3000.000
G1 X81.265 Y173.551 E0.63445
G1 X81.265 Y173.966 E0.01772
G1 X70.892 Y163.592 E0.62650
G1 X70.892 Y164.007 E0.01772
G1 X81.265 Y174.381 E0.62650
G1 X81.265 Y174.796 E0.01772
G1 X70.892 Y164.422 E0.62650
G1 X70.892 Y164.837 E0.01772
G1 X81.265 Y175.211 E0.62650
G1 X81.265 Y175.626 E0.01772
G1 X70.892 Y165.253 E0.62650
G1 X70.892 Y165.668 E0.01772
G1 X81.265 Y176.041 E0.62650
G1 X81.265 Y176.456 E0.01772
G1 X70.892 Y166.083 E0.62650
G1 X70.892 Y166.498 E0.01772
G1 X86.487 Y182.093 E0.94185
G1 X86.902 Y182.093 E0.01772
G1 X81.530 Y176.721 E0.32443
G1 X81.945 Y176.721 E0.01772
G1 X87.317 Y182.093 E0.32443
G1 X87.732 Y182.093 E0.01772
G1 X82.360 Y176.721 E0.32443
G1 X82.775 Y176.721 E0.01772
G1 X88.147 Y182.093 E0.32443
G1 X88.562 Y182.093 E0.01772
G1 X83.190 Y176.721 E0.32443
G1 X83.605 Y176.721 E0.01772
G1 X88.977 Y182.093 E0.32443
G1 X89.392 Y182.093 E0.01772
G1 X84.020 Y176.721 E0.32443
G1 X84.435 Y176.721 E0.01772
G1 X89.807 Y182.093 E0.32443
G1 X90.222 Y182.093 E0.01772
G1 X84.850 Y176.721 E0.32443
G1 X85.265 Y176.721 E0.01772
G1 X90.637 Y182.093 E0.32443
G1 X91.052 Y182.093 E0.01772
G1 X85.680 Y176.721 E0.32443
G1 X86.095 Y176.721 E0.01772
G1 X91.467 Y182.093 E0.32443
G1 X91.882 Y182.093 E0.01772
G1 X86.510 Y176.721 E0.32443
G1 X86.925 Y176.721 E0.01772
G1 X92.297 Y182.093 E0.32443
G1 X92.712 Y182.093 E0.01772
G1 X87.340 Y176.721 E0.32443
G1 X87.756 Y176.721 E0.01772
G1 X93.127 Y182.093 E0.32443
G1 X93.542 Y182.093 E0.01772
G1 X88.171 Y176.721 E0.32443
G1 X88.586 Y176.721 E0.01772
G1 X93.957 Y182.093 E0.32443
G1 X94.373 Y182.093 E0.01772
G1 X89.001 Y176.721 E0.32443
G1 X89.416 Y176.721 E0.01772
G1 X94.788 Y182.093 E0.32443
G1 X95.203 Y182.093 E0.01772
G1 X89.831 Y176.721 E0.32443
G1 X90.246 Y176.721 E0.01772
G1 X95.618 Y182.093 E0.32443
G1 X96.033 Y182.093 E0.01772
G1 X90.661 Y176.721 E0.32443
G1 X91.076 Y176.721 E0.01772
G1 X96.448 Y182.093 E0.32443
G1 X96.863 Y182.093 E0.01772
G1 X91.491 Y176.721 E0.32443
G1 X91.906 Y176.721 E0.01772
G1 X97.278 Y182.093 E0.32443
G1 X97.693 Y182.093 E0.01772
G1 X92.321 Y176.721 E0.32443
G1 X92.736 Y176.721 E0.01772
G1 X98.108 Y182.093 E0.32443
G1 X98.523 Y182.093 E0.01772
G1 X93.151 Y176.721 E0.32443
G1 X93.566 Y176.721 E0.01772
G1 X98.938 Y182.093 E0.32443
G1 X99.353 Y182.093 E0.01772
G1 X93.981 Y176.721 E0.32443
G1 X94.396 Y176.721 E0.01772
G1 X99.768 Y182.093 E0.32443
G1 X100.183 Y182.093 E0.01772
G1 X94.811 Y176.721 E0.32443
G1 X95.226 Y176.721 E0.01772
G1 X100.598 Y182.093 E0.32443
G1 X101.013 Y182.093 E0.01772
G1 X95.641 Y176.721 E0.32443
G1 X96.056 Y176.721 E0.01772
G1 X101.428 Y182.093 E0.32443
G1 X101.843 Y182.093 E0.01772
G1 X96.472 Y176.721 E0.32443
G1 X96.715 Y176.721 E0.01038
G1 X96.715 Y176.549 E0.00735
G1 X102.258 Y182.093 E0.33482
G1 X102.673 Y182.093 E0.01772
G1 X96.715 Y176.134 E0.35989
G1 X96.715 Y175.719 E0.01772
G1 X103.089 Y182.093 E0.38496
G1 X103.504 Y182.093 E0.01772
G1 X96.715 Y175.303 E0.41002
G1 X96.715 Y174.888 E0.01772
G1 X103.919 Y182.093 E0.43509
G1 X104.334 Y182.093 E0.01772
G1 X96.715 Y174.473 E0.46016
G1 X96.715 Y174.058 E0.01772
G1 X104.749 Y182.093 E0.48522
G1 X105.164 Y182.093 E0.01772
G1 X96.715 Y173.643 E0.51029
G1 X96.715 Y173.228 E0.01772
G1 X105.579 Y182.093 E0.53536
G1 X105.994 Y182.093 E0.01772
G1 X96.715 Y172.813 E0.56042
G1 X96.715 Y172.398 E0.01772
G1 X106.409 Y182.093 E0.58549
G1 X106.824 Y182.093 E0.01772
G1 X96.715 Y171.983 E0.61056
G1 X96.715 Y171.568 E0.01772
G1 X107.239 Y182.093 E0.63562
G1 X107.654 Y182.093 E0.01772
G1 X96.715 Y171.153 E0.66069
G1 X96.715 Y170.738 E0.01772
G1 X108.201 Y182.224 E0.69370
G10 ; retract
G1 X129.218 Y181.244 F7800.000
G11 ; unretract
G1 F3000.000
G1 X128.874 Y180.900 E0.02080
G1 X128.459 Y180.900 E0.01772
G1 X129.085 Y181.526 E0.03782
G1 X129.082 Y181.938 E0.01762
G1 X128.044 Y180.900 E0.06274
G1 X127.628 Y180.900 E0.01772
G1 X128.821 Y182.093 E0.07205
G1 X128.406 Y182.093 E0.01772
G1 X127.213 Y180.900 E0.07205
G1 X126.798 Y180.900 E0.01772
G1 X127.991 Y182.093 E0.07205
G1 X127.576 Y182.093 E0.01772
G1 X126.383 Y180.900 E0.07205
G1 X125.968 Y180.900 E0.01772
G1 X127.161 Y182.093 E0.07205
G1 X126.746 Y182.093 E0.01772
G1 X125.553 Y180.900 E0.07205
G1 X125.138 Y180.900 E0.01772
G1 X126.331 Y182.093 E0.07205
G1 X125.916 Y182.093 E0.01772
G1 X124.723 Y180.900 E0.07205
G1 X124.308 Y180.900 E0.01772
G1 X125.501 Y182.093 E0.07205
G1 X125.086 Y182.093 E0.01772
G1 X123.893 Y180.900 E0.07205
G1 X123.478 Y180.900 E0.01772
G1 X124.671 Y182.093 E0.07205
G1 X124.256 Y182.093 E0.01772
G1 X123.063 Y180.900 E0.07205
G1 X122.648 Y180.900 E0.01772
G1 X123.841 Y182.093 E0.07205
G1 X123.426 Y182.093 E0.01772
G1 X122.233 Y180.900 E0.07205
G1 X121.818 Y180.900 E0.01772
G1 X123.011 Y182.093 E0.07205
G1 X122.596 Y182.093 E0.01772
G1 X121.403 Y180.900 E0.07205
G1 X120.988 Y180.900 E0.01772
G1 X122.181 Y182.093 E0.07205
G1 X121.766 Y182.093 E0.01772
G1 X120.573 Y180.900 E0.07205
G1 X120.158 Y180.900 E0.01772
G1 X121.351 Y182.093 E0.07205
G1 X120.936 Y182.093 E0.01772
G1 X119.743 Y180.900 E0.07205
G1 X119.328 Y180.900 E0.01772
G1 X120.521 Y182.093 E0.07205
G1 X120.105 Y182.093 E0.01772
G1 X118.912 Y180.900 E0.07205
G1 X118.497 Y180.900 E0.01772
G1 X119.690 Y182.093 E0.07205
G1 X119.275 Y182.093 E0.01772
G1 X118.082 Y180.900 E0.07205
G1 X117.667 Y180.900 E0.01772
G1 X118.860 Y182.093 E0.07205
G1 X118.445 Y182.093 E0.01772
G1 X117.252 Y180.900 E0.07205
G1 X116.837 Y180.900 E0.01772
G1 X118.030 Y182.093 E0.07205
G1 X117.615 Y182.093 E0.01772
G1 X116.422 Y180.900 E0.07205
G1 X116.007 Y180.900 E0.01772
G1 X117.200 Y182.093 E0.07205
G1 X116.785 Y182.093 E0.01772
G1 X115.592 Y180.900 E0.07205
G1 X115.177 Y180.900 E0.01772
G1 X116.370 Y182.093 E0.07205
G1 X115.955 Y182.093 E0.01772
G1 X114.762 Y180.900 E0.07205
G1 X114.347 Y180.900 E0.01772
G1 X115.540 Y182.093 E0.07205
G1 X115.125 Y182.093 E0.01772
G1 X113.932 Y180.900 E0.07205
G1 X113.517 Y180.900 E0.01772
G1 X114.710 Y182.093 E0.07205
G1 X114.295 Y182.093 E0.01772
G1 X113.102 Y180.900 E0.07205
G1 X112.687 Y180.900 E0.01772
G1 X113.880 Y182.093 E0.07205
G1 X113.465 Y182.093 E0.01772
G1 X112.272 Y180.900 E0.07205
G1 X111.857 Y180.900 E0.01772
G1 X113.050 Y182.093 E0.07205
G1 X112.635 Y182.093 E0.01772
G1 X111.442 Y180.900 E0.07205
