; generated by PrusaSlicer 2.2.0+win64 on 2020-06-18 at 18:49:47 UTC

; 

; external perimeters extrusion width = 0.45mm
; perimeters extrusion width = 0.45mm
; infill extrusion width = 0.45mm
; solid infill extrusion width = 0.45mm
; top infill extrusion width = 0.40mm
; support material extrusion width = 0.40mm
; first layer extrusion width = 0.37mm

M107
T0
M98 P/macros/PLA offset  ; set z probe offset for pla
M190 S65
M104 S190
G28                 ; home all axes
G29                 ; bed calibration
M109 S190
;M117 Printing daprato_TitanAero_Cooling_Fan_30x30x10
G21 ; set units to millimeters
G90 ; use absolute coordinates
M83 ; use relative distances for extrusion
; Filament gcode
G10 ; retract
G1 Z0.350 F7800.000
G1 X77.879 Y130.148
G11 ; unretract
G1 F2100.000
G1 X78.936 Y129.575 E0.05118
G1 X80.087 Y129.202 E0.05145
G1 X81.286 Y129.046 E0.05145
G1 X93.255 Y129.042 E0.50926
G1 X121.610 Y129.426 E1.20650
G1 X122.418 Y129.488 E0.03450
G1 X123.231 Y129.655 E0.03531
G1 X124.017 Y129.922 E0.03531
G1 X124.763 Y130.286 E0.03531
G1 X125.457 Y130.741 E0.03531
G1 X126.388 Y131.589 E0.05359
G1 X127.877 Y133.289 E0.09615
G1 X128.362 Y133.947 E0.03477
G1 X128.798 Y134.734 E0.03827
G1 X129.122 Y135.573 E0.03827
G1 X129.328 Y136.448 E0.03827
G1 X129.413 Y137.338 E0.03800
G1 X129.397 Y171.590 E1.45734
G1 X129.277 Y172.444 E0.03666
G1 X128.987 Y173.560 E0.04907
G1 X128.669 Y174.354 E0.03639
G1 X128.250 Y175.100 E0.03639
G1 X127.592 Y175.952 E0.04580
G1 X126.126 Y177.428 E0.08852
G1 X125.048 Y178.298 E0.05896
G1 X124.243 Y178.742 E0.03908
G1 X123.379 Y179.071 E0.03935
G1 X122.483 Y179.274 E0.03908
G1 X121.562 Y179.351 E0.03935
G1 X103.723 Y179.352 E0.75898
G1 X75.090 Y178.955 E1.21836
G1 X74.205 Y178.836 E0.03800
G1 X73.344 Y178.598 E0.03800
G1 X72.523 Y178.247 E0.03800
G1 X71.762 Y177.790 E0.03773
G1 X70.679 Y176.847 E0.06111
G1 X68.819 Y174.599 E0.12415
G1 X68.368 Y173.777 E0.03989
G1 X68.040 Y172.906 E0.03962
G1 X67.838 Y171.997 E0.03962
G1 X67.766 Y171.062 E0.03989
G1 X67.768 Y142.968 E1.19531
G1 X68.052 Y141.091 E0.08076
G1 X68.626 Y139.618 E0.06727
G1 X69.101 Y138.861 E0.03800
G1 X69.669 Y138.180 E0.03773
G1 X76.938 Y130.908 E0.43747
G1 X77.832 Y130.186 E0.04889
G1 X78.015 Y130.412 F7800.000
G1 F2100.000
G1 X79.056 Y129.841 E0.05052
G1 X80.158 Y129.486 E0.04924
G1 X81.306 Y129.338 E0.04924
G1 X93.255 Y129.334 E0.50841
G1 X122.359 Y129.775 E1.23841
G1 X123.142 Y129.933 E0.03399
G1 X123.899 Y130.189 E0.03399
G1 X124.617 Y130.539 E0.03399
G1 X125.285 Y130.977 E0.03399
G1 X126.172 Y131.786 E0.05107
G1 X128.108 Y134.092 E0.12809
G1 X128.526 Y134.844 E0.03662
G1 X128.840 Y135.652 E0.03688
G1 X129.040 Y136.496 E0.03688
G1 X129.121 Y137.353 E0.03662
G1 X129.107 Y171.555 E1.45517
G1 X128.993 Y172.370 E0.03504
G1 X128.713 Y173.456 E0.04768
G1 X128.408 Y174.221 E0.03504
G1 X128.009 Y174.934 E0.03478
G1 X127.181 Y175.959 E0.05606
G1 X125.722 Y177.409 E0.08752
G1 X124.905 Y178.042 E0.04398
G1 X124.125 Y178.474 E0.03794
G1 X123.298 Y178.790 E0.03767
G1 X122.434 Y178.986 E0.03767
G1 X121.552 Y179.059 E0.03767
G1 X103.724 Y179.059 E0.75849
G1 X75.120 Y178.664 E1.21713
G1 X74.273 Y178.551 E0.03636
G1 X73.449 Y178.325 E0.03636
G1 X72.663 Y177.990 E0.03636
G1 X71.925 Y177.547 E0.03662
G1 X70.895 Y176.649 E0.05816
G1 X69.074 Y174.455 E0.12131
G1 X68.640 Y173.669 E0.03820
G1 X68.322 Y172.829 E0.03820
G1 X68.128 Y171.959 E0.03794
G1 X68.059 Y171.064 E0.03820
G1 X68.061 Y142.978 E1.19495
G1 X68.333 Y141.173 E0.07767
G1 X68.884 Y139.755 E0.06470
G1 X69.338 Y139.031 E0.03636
G1 X69.882 Y138.380 E0.03610
G1 X77.139 Y131.121 E0.43674
G1 X77.968 Y130.449 E0.04538
G10 ; retract
G1 X75.521 Y172.384 F7800.000
G11 ; unretract
G1 F2100.000
G1 X93.216 Y172.384 E0.75283
G1 X93.633 Y171.966 E0.02513
G1 X75.290 Y171.966 E0.78046
G1 X74.872 Y171.549 E0.02513
G1 X94.051 Y171.549 E0.81600
G1 X94.469 Y171.131 E0.02513
G1 X74.454 Y171.131 E0.85155
G1 X74.351 Y171.028 E0.00622
G1 X74.351 Y170.713 E0.01337
G1 X94.572 Y170.713 E0.86035
G1 X94.572 Y170.296 E0.01777
G1 X74.351 Y170.296 E0.86035
G1 X74.351 Y169.878 E0.01777
G1 X94.572 Y169.878 E0.86035
G1 X94.572 Y169.460 E0.01777
G1 X74.351 Y169.460 E0.86035
G1 X74.351 Y169.043 E0.01777
G1 X94.572 Y169.043 E0.86035
G1 X94.572 Y168.625 E0.01777
G1 X74.351 Y168.625 E0.86035
G1 X74.351 Y168.207 E0.01777
G1 X94.572 Y168.207 E0.86035
G1 X94.572 Y167.789 E0.01777
G1 X74.351 Y167.789 E0.86035
G1 X74.351 Y167.372 E0.01777
G1 X94.572 Y167.372 E0.86035
G1 X94.572 Y166.954 E0.01777
G1 X74.351 Y166.954 E0.86035
G1 X74.351 Y166.536 E0.01777
G1 X94.572 Y166.536 E0.86035
G1 X94.572 Y166.119 E0.01777
G1 X74.351 Y166.119 E0.86035
G1 X74.351 Y165.701 E0.01777
G1 X94.572 Y165.701 E0.86035
G1 X94.572 Y165.283 E0.01777
G1 X74.351 Y165.283 E0.86035
G1 X74.351 Y164.866 E0.01777
G1 X94.572 Y164.866 E0.86035
G1 X94.572 Y164.448 E0.01777
G1 X74.351 Y164.448 E0.86035
G1 X74.351 Y164.030 E0.01777
G1 X94.572 Y164.030 E0.86035
G1 X94.572 Y163.612 E0.01777
G1 X74.351 Y163.612 E0.86035
G1 X74.351 Y163.195 E0.01777
G1 X94.572 Y163.195 E0.86035
G1 X94.572 Y162.777 E0.01777
G1 X74.351 Y162.777 E0.86035
G1 X74.351 Y162.359 E0.01777
G1 X94.572 Y162.359 E0.86035
G1 X94.572 Y161.942 E0.01777
G1 X74.351 Y161.942 E0.86035
G1 X74.351 Y161.524 E0.01777
G1 X94.572 Y161.524 E0.86035
G1 X94.572 Y161.106 E0.01777
G1 X74.351 Y161.106 E0.86035
G1 X74.351 Y160.689 E0.01777
G1 X94.572 Y160.689 E0.86035
G1 X94.572 Y160.271 E0.01777
G1 X74.351 Y160.271 E0.86035
G1 X74.351 Y159.853 E0.01777
G1 X94.572 Y159.853 E0.86035
G1 X94.572 Y159.435 E0.01777
G1 X74.351 Y159.435 E0.86035
G1 X74.351 Y159.018 E0.01777
G1 X94.572 Y159.018 E0.86035
G1 X94.572 Y158.600 E0.01777
G1 X74.351 Y158.600 E0.86035
G1 X74.351 Y158.182 E0.01777
G1 X94.572 Y158.182 E0.86035
G1 X94.572 Y157.765 E0.01777
G1 X74.351 Y157.765 E0.86035
G1 X74.351 Y157.347 E0.01777
G1 X94.572 Y157.347 E0.86035
G1 X94.572 Y156.929 E0.01777
G1 X74.351 Y156.929 E0.86035
G1 X74.351 Y156.512 E0.01777
G1 X94.572 Y156.512 E0.86035
G1 X94.572 Y156.094 E0.01777
G1 X74.351 Y156.094 E0.86035
G1 X74.351 Y155.676 E0.01777
G1 X94.572 Y155.676 E0.86035
G1 X94.572 Y155.258 E0.01777
G1 X74.351 Y155.258 E0.86035
G1 X74.351 Y154.841 E0.01777
G1 X94.572 Y154.841 E0.86035
G1 X94.572 Y154.423 E0.01777
G1 X74.351 Y154.423 E0.86035
G1 X74.351 Y154.005 E0.01777
G1 X94.572 Y154.005 E0.86035
G1 X94.572 Y153.588 E0.01777
G1 X74.351 Y153.588 E0.86035
G1 X74.351 Y153.170 E0.01777
G1 X94.572 Y153.170 E0.86035
G1 X94.572 Y152.752 E0.01777
G1 X74.351 Y152.752 E0.86035
G1 X74.351 Y152.335 E0.01777
G1 X94.572 Y152.335 E0.86035
G1 X94.572 Y151.917 E0.01777
G1 X74.351 Y151.917 E0.86035
G1 X74.351 Y151.499 E0.01777
G1 X94.572 Y151.499 E0.86035
G1 X94.572 Y151.081 E0.01777
G1 X74.351 Y151.081 E0.86035
G1 X74.351 Y150.664 E0.01777
G1 X94.572 Y150.664 E0.86035
G1 X94.572 Y150.246 E0.01777
G1 X74.351 Y150.246 E0.86035
G1 X74.351 Y149.828 E0.01777
G1 X94.572 Y149.828 E0.86035
G1 X94.572 Y149.411 E0.01777
G1 X74.351 Y149.411 E0.86035
G1 X74.351 Y148.993 E0.01777
G1 X94.572 Y148.993 E0.86035
G1 X94.572 Y148.575 E0.01777
G1 X74.351 Y148.575 E0.86035
G1 X74.351 Y148.158 E0.01777
G1 X94.572 Y148.158 E0.86035
G1 X94.572 Y147.740 E0.01777
G1 X74.351 Y147.740 E0.86035
G1 X74.351 Y147.322 E0.01777
G1 X94.572 Y147.322 E0.86035
G1 X94.572 Y146.904 E0.01777
G1 X74.351 Y146.904 E0.86035
G1 X74.351 Y146.487 E0.01777
G1 X94.572 Y146.487 E0.86035
G1 X94.572 Y146.069 E0.01777
G1 X74.351 Y146.069 E0.86035
G1 X74.351 Y145.651 E0.01777
G1 X94.572 Y145.651 E0.86035
G1 X94.572 Y145.234 E0.01777
G1 X74.351 Y145.234 E0.86035
G1 X74.351 Y144.816 E0.01777
G1 X94.572 Y144.816 E0.86035
G1 X94.572 Y144.398 E0.01777
G1 X74.351 Y144.398 E0.86035
G1 X74.351 Y143.981 E0.01777
G1 X94.572 Y143.981 E0.86035
G1 X94.572 Y143.563 E0.01777
G1 X74.351 Y143.563 E0.86035
G1 X74.351 Y143.145 E0.01777
G1 X94.572 Y143.145 E0.86035
G1 X94.572 Y142.727 E0.01777
G1 X74.431 Y142.727 E0.85695
G1 X74.848 Y142.310 E0.02513
G1 X94.572 Y142.310 E0.83918
G1 X94.572 Y141.892 E0.01777
G1 X75.266 Y141.892 E0.82141
G1 X75.684 Y141.474 E0.02513
G1 X94.572 Y141.474 E0.80364
G1 X94.572 Y141.057 E0.01777
G1 X77.186 Y141.057 E0.73970
G1 X77.186 Y140.639 E0.01777
G1 X94.572 Y140.639 E0.73970
G1 X94.572 Y140.221 E0.01777
G1 X77.186 Y140.221 E0.73970
G1 X77.186 Y139.972 E0.01062
G1 X77.354 Y139.804 E0.01011
G1 X94.572 Y139.804 E0.73255
G1 X94.572 Y139.386 E0.01777
G1 X77.772 Y139.386 E0.71478
G1 X78.190 Y138.968 E0.02513
G1 X94.572 Y138.968 E0.69701
G1 X94.572 Y138.550 E0.01777
G1 X78.608 Y138.550 E0.67924
G1 X78.858 Y138.300 E0.01508
G1 X80.022 Y138.300 E0.04952
G1 X80.022 Y138.133 E0.00711
G1 X94.572 Y138.133 E0.61906
G1 X94.572 Y137.715 E0.01777
G1 X80.022 Y137.715 E0.61906
G1 X80.022 Y137.297 E0.01777
G1 X94.572 Y137.297 E0.61906
G1 X94.572 Y137.136 E0.00687
G1 X94.316 Y136.880 E0.01542
G1 X80.278 Y136.880 E0.59725
G1 X80.696 Y136.462 E0.02513
G1 X93.898 Y136.462 E0.56170
G1 X93.480 Y136.044 E0.02513
G1 X81.114 Y136.044 E0.52616
G1 X81.531 Y135.627 E0.02513
G1 X93.249 Y135.627 E0.49854
G10 ; retract
G1 X103.780 Y172.767 F7800.000
G11 ; unretract
G1 F2100.000
G1 X121.475 Y172.767 E0.75283
G1 X121.892 Y172.350 E0.02513
G1 X103.549 Y172.350 E0.78046
G1 X103.131 Y171.932 E0.02513
G1 X122.310 Y171.932 E0.81600
G1 X122.728 Y171.514 E0.02513
G1 X102.713 Y171.514 E0.85155
G1 X102.610 Y171.411 E0.00622
G1 X102.610 Y171.096 E0.01337
G1 X122.831 Y171.096 E0.86035
G1 X122.831 Y170.679 E0.01777
G1 X102.610 Y170.679 E0.86035
G1 X102.610 Y170.261 E0.01777
G1 X122.831 Y170.261 E0.86035
G1 X122.831 Y169.843 E0.01777
G1 X102.610 Y169.843 E0.86035
G1 X102.610 Y169.426 E0.01777
G1 X122.831 Y169.426 E0.86035
G1 X122.831 Y169.008 E0.01777
G1 X102.610 Y169.008 E0.86035
G1 X102.610 Y168.590 E0.01777
G1 X122.831 Y168.590 E0.86035
G1 X122.831 Y168.173 E0.01777
G1 X102.610 Y168.173 E0.86035
G1 X102.610 Y167.755 E0.01777
G1 X122.831 Y167.755 E0.86035
G1 X122.831 Y167.337 E0.01777
G1 X102.610 Y167.337 E0.86035
G1 X102.610 Y166.919 E0.01777
G1 X122.831 Y166.919 E0.86035
G1 X122.831 Y166.502 E0.01777
G1 X102.610 Y166.502 E0.86035
G1 X102.610 Y166.084 E0.01777
G1 X122.831 Y166.084 E0.86035
G1 X122.831 Y165.666 E0.01777
G1 X102.610 Y165.666 E0.86035
G1 X102.610 Y165.249 E0.01777
G1 X122.831 Y165.249 E0.86035
G1 X122.831 Y164.831 E0.01777
G1 X102.610 Y164.831 E0.86035
G1 X102.610 Y164.413 E0.01777
G1 X122.831 Y164.413 E0.86035
G1 X122.831 Y163.996 E0.01777
G1 X102.610 Y163.996 E0.86035
G1 X102.610 Y163.578 E0.01777
G1 X122.831 Y163.578 E0.86035
G1 X122.831 Y163.160 E0.01777
G1 X102.610 Y163.160 E0.86035
G1 X102.610 Y162.742 E0.01777
G1 X122.831 Y162.742 E0.86035
G1 X122.831 Y162.325 E0.01777
G1 X102.610 Y162.325 E0.86035
G1 X102.610 Y161.907 E0.01777
G1 X122.831 Y161.907 E0.86035
G1 X122.831 Y161.489 E0.01777
G1 X102.610 Y161.489 E0.86035
G1 X102.610 Y161.072 E0.01777
G1 X122.831 Y161.072 E0.86035
G1 X122.831 Y160.654 E0.01777
G1 X102.610 Y160.654 E0.86035
G1 X102.610 Y160.236 E0.01777
G1 X122.831 Y160.236 E0.86035
G1 X122.831 Y159.819 E0.01777
G1 X102.610 Y159.819 E0.86035
G1 X102.610 Y159.401 E0.01777
G1 X122.831 Y159.401 E0.86035
G1 X122.831 Y158.983 E0.01777
G1 X102.610 Y158.983 E0.86035
G1 X102.610 Y158.565 E0.01777
G1 X122.831 Y158.565 E0.86035
G1 X122.831 Y158.148 E0.01777
G1 X102.610 Y158.148 E0.86035
G1 X102.610 Y157.730 E0.01777
G1 X122.831 Y157.730 E0.86035
G1 X122.831 Y157.312 E0.01777
G1 X102.610 Y157.312 E0.86035
G1 X102.610 Y156.895 E0.01777
G1 X122.831 Y156.895 E0.86035
G1 X122.831 Y156.477 E0.01777
G1 X102.610 Y156.477 E0.86035
G1 X102.610 Y156.059 E0.01777
G1 X122.831 Y156.059 E0.86035
G1 X122.831 Y155.642 E0.01777
G1 X102.610 Y155.642 E0.86035
G1 X102.610 Y155.224 E0.01777
G1 X122.831 Y155.224 E0.86035
G1 X122.831 Y154.806 E0.01777
G1 X102.610 Y154.806 E0.86035
G1 X102.610 Y154.389 E0.01777
G1 X122.831 Y154.389 E0.86035
G1 X122.831 Y153.971 E0.01777
G1 X102.610 Y153.971 E0.86035
G1 X102.610 Y153.553 E0.01777
G1 X122.831 Y153.553 E0.86035
G1 X122.831 Y153.135 E0.01777
G1 X102.610 Y153.135 E0.86035
G1 X102.610 Y152.718 E0.01777
G1 X122.831 Y152.718 E0.86035
G1 X122.831 Y152.300 E0.01777
G1 X102.610 Y152.300 E0.86035
G1 X102.610 Y151.882 E0.01777
G1 X122.831 Y151.882 E0.86035
G1 X122.831 Y151.465 E0.01777
G1 X102.610 Y151.465 E0.86035
G1 X102.610 Y151.047 E0.01777
G1 X122.831 Y151.047 E0.86035
G1 X122.831 Y150.629 E0.01777
G1 X102.610 Y150.629 E0.86035
G1 X102.610 Y150.212 E0.01777
G1 X122.831 Y150.212 E0.86035
G1 X122.831 Y149.794 E0.01777
G1 X102.610 Y149.794 E0.86035
G1 X102.610 Y149.376 E0.01777
G1 X122.831 Y149.376 E0.86035
G1 X122.831 Y148.958 E0.01777
G1 X102.610 Y148.958 E0.86035
G1 X102.610 Y148.541 E0.01777
G1 X122.831 Y148.541 E0.86035
G1 X122.831 Y148.123 E0.01777
G1 X102.610 Y148.123 E0.86035
G1 X102.610 Y147.705 E0.01777
G1 X122.831 Y147.705 E0.86035
G1 X122.831 Y147.288 E0.01777
G1 X102.610 Y147.288 E0.86035
G1 X102.610 Y146.870 E0.01777
G1 X122.831 Y146.870 E0.86035
G1 X122.831 Y146.452 E0.01777
G1 X102.610 Y146.452 E0.86035
G1 X102.610 Y146.035 E0.01777
G1 X122.831 Y146.035 E0.86035
G1 X122.831 Y145.617 E0.01777
G1 X102.610 Y145.617 E0.86035
G1 X102.610 Y145.199 E0.01777
G1 X122.831 Y145.199 E0.86035
G1 X122.831 Y144.781 E0.01777
G1 X102.610 Y144.781 E0.86035
G1 X102.610 Y144.364 E0.01777
G1 X122.831 Y144.364 E0.86035
G1 X122.831 Y143.946 E0.01777
G1 X102.610 Y143.946 E0.86035
G1 X102.610 Y143.528 E0.01777
G1 X122.831 Y143.528 E0.86035
G1 X122.831 Y143.111 E0.01777
G1 X102.689 Y143.111 E0.85695
G1 X103.107 Y142.693 E0.02513
G1 X122.831 Y142.693 E0.83918
G1 X122.831 Y142.275 E0.01777
G1 X103.525 Y142.275 E0.82141
G1 X103.943 Y141.858 E0.02513
G1 X122.831 Y141.858 E0.80364
G1 X122.831 Y141.440 E0.01777
G1 X105.445 Y141.440 E0.73970
G1 X105.445 Y141.022 E0.01777
G1 X122.831 Y141.022 E0.73970
G1 X122.831 Y140.604 E0.01777
G1 X105.445 Y140.604 E0.73970
G1 X105.445 Y140.355 E0.01062
G1 X105.613 Y140.187 E0.01011
G1 X122.831 Y140.187 E0.73255
G1 X122.831 Y139.769 E0.01777
G1 X106.031 Y139.769 E0.71478
G1 X106.449 Y139.351 E0.02513
G1 X122.831 Y139.351 E0.69701
G1 X122.831 Y138.934 E0.01777
G1 X106.866 Y138.934 E0.67924
G1 X107.117 Y138.683 E0.01508
G1 X108.281 Y138.683 E0.04952
G1 X108.281 Y138.516 E0.00711
G1 X122.831 Y138.516 E0.61906
G1 X122.831 Y138.098 E0.01777
G1 X108.281 Y138.098 E0.61906
G1 X108.281 Y137.681 E0.01777
G1 X122.831 Y137.681 E0.61906
G1 X122.831 Y137.519 E0.00687
G1 X122.575 Y137.263 E0.01542
G1 X108.537 Y137.263 E0.59725
G1 X108.955 Y136.845 E0.02513
G1 X122.157 Y136.845 E0.56170
G1 X121.739 Y136.427 E0.02513
G1 X109.373 Y136.427 E0.52616
G1 X109.790 Y136.010 E0.02513
G1 X121.508 Y136.010 E0.49854
G10 ; retract
G1 Z0.650 F7800.000
M104 S180 ; set temperature
M140 S60 ; set bed temperature
G1 X77.657 Y169.829
G11 ; unretract
G1 F4200.000
G1 X77.657 Y144.157 E1.07462
G1 X77.992 Y144.157 E0.01405
G1 X77.992 Y169.678 E1.06830
G1 X78.328 Y169.678 E0.01405
G1 X78.328 Y144.157 E1.06830
G1 X78.663 Y144.157 E0.01405
G1 X78.663 Y169.678 E1.06830
G1 X78.999 Y169.678 E0.01405
G1 X78.999 Y144.157 E1.06830
G1 X79.335 Y144.157 E0.01405
G1 X79.335 Y169.678 E1.06830
G1 X79.670 Y169.678 E0.01405
G1 X79.670 Y144.157 E1.06830
G1 X80.006 Y144.157 E0.01405
G1 X80.006 Y169.678 E1.06830
G1 X80.342 Y169.678 E0.01405
G1 X80.342 Y141.321 E1.18700
G1 X80.677 Y141.321 E0.01405
G1 X80.677 Y169.678 E1.18700
G1 X81.013 Y169.678 E0.01405
G1 X81.013 Y141.321 E1.18700
G1 X81.348 Y141.321 E0.01405
G1 X81.348 Y169.678 E1.18700
G1 X81.684 Y169.678 E0.01405
G1 X81.684 Y141.321 E1.18700
G1 X82.020 Y141.321 E0.01405
G1 X82.020 Y169.678 E1.18700
G1 X82.355 Y169.678 E0.01405
G1 X82.355 Y141.321 E1.18700
G1 X82.691 Y141.321 E0.01405
G1 X82.691 Y169.678 E1.18700
G1 X83.026 Y169.678 E0.01405
G1 X83.026 Y141.321 E1.18700
G1 X83.044 Y141.321 E0.00072
G1 X83.044 Y138.486 E0.11870
G1 X83.362 Y138.486 E0.01333
G1 X83.362 Y169.678 E1.30570
G1 X83.698 Y169.678 E0.01405
G1 X83.698 Y138.486 E1.30570
G1 X84.033 Y138.486 E0.01405
G1 X84.033 Y169.678 E1.30570
G1 X84.369 Y169.678 E0.01405
G1 X84.369 Y138.486 E1.30570
G1 X84.705 Y138.486 E0.01405
G1 X84.705 Y169.678 E1.30570
G1 X85.040 Y169.678 E0.01405
G1 X85.040 Y138.486 E1.30570
