; generated by PrusaSlicer 2.2.0+win64 on 2020-06-19 at 14:09:04 UTC

; 

; external perimeters extrusion width = 0.45mm
; perimeters extrusion width = 0.45mm
; infill extrusion width = 0.45mm
; solid infill extrusion width = 0.45mm
; top infill extrusion width = 0.40mm
; first layer extrusion width = 0.37mm

M107
T0
M98 P/macros/PLA offset  ; set z probe offset for pla
M190 S65
M104 S190
G28                 ; home all axes
G29                 ; bed calibration
M109 S190
;M117 Printing FanDuct4010Circular
G21 ; set units to millimeters
G90 ; use absolute coordinates
M83 ; use relative distances for extrusion
; Filament gcode
G10 ; retract
G1 Z0.350 F7800.000
G1 X77.629 Y116.032
G11 ; unretract
G1 F2100.000
G1 X79.064 Y115.465 E0.06566
G1 X80.586 Y115.247 E0.06539
G1 X108.657 Y115.245 E1.19434
G1 X110.146 Y115.417 E0.06379
G1 X111.558 Y115.922 E0.06379
G1 X134.154 Y127.643 E1.08305
G1 X135.148 Y128.279 E0.05018
G1 X136.027 Y129.071 E0.05034
G1 X136.778 Y130.016 E0.05135
G1 X137.367 Y131.077 E0.05165
G1 X137.776 Y132.257 E0.05313
G1 X137.977 Y133.487 E0.05305
G1 X137.970 Y134.666 E0.05013
G1 X137.809 Y135.679 E0.04365
G1 X137.395 Y137.061 E0.06139
G1 X126.438 Y164.835 E1.27031
G1 X125.517 Y166.941 E0.09777
G1 X124.615 Y168.704 E0.08429
G1 X123.535 Y170.531 E0.09029
G1 X122.336 Y172.297 E0.09079
G1 X121.142 Y173.843 E0.08312
G1 X119.473 Y175.738 E0.10746
G1 X118.085 Y177.121 E0.08336
G1 X116.549 Y178.479 E0.08722
G1 X114.622 Y179.966 E0.10357
G1 X113.001 Y181.064 E0.08330
G1 X111.174 Y182.144 E0.09028
G1 X109.272 Y183.113 E0.09083
G1 X107.413 Y183.921 E0.08624
G1 X106.588 Y184.213 E0.03725
G1 X105.797 Y184.391 E0.03450
G1 X104.774 Y184.475 E0.04365
G1 X84.636 Y184.474 E0.85680
G1 X83.441 Y184.343 E0.05118
G1 X82.268 Y183.994 E0.05205
G1 X80.059 Y183.030 E0.10253
G1 X78.317 Y182.138 E0.08328
G1 X76.497 Y181.061 E0.08999
G1 X74.736 Y179.866 E0.09053
G1 X73.187 Y178.670 E0.08330
G1 X71.407 Y177.113 E0.10060
G1 X69.915 Y175.622 E0.08974
G1 X68.626 Y174.165 E0.08276
G1 X67.164 Y172.295 E0.10099
G1 X65.980 Y170.553 E0.08959
G1 X64.972 Y168.856 E0.08399
G1 X63.830 Y166.614 E0.10706
G1 X63.058 Y164.822 E0.08300
G1 X62.388 Y162.970 E0.08383
G1 X61.688 Y160.552 E0.10706
G1 X61.267 Y158.649 E0.08294
G1 X60.934 Y156.547 E0.09056
G1 X60.735 Y154.439 E0.09008
G1 X60.669 Y152.472 E0.08371
G1 X60.747 Y149.957 E0.10707
G1 X60.936 Y147.990 E0.08407
G1 X61.263 Y145.924 E0.08900
G1 X61.787 Y143.615 E0.10075
G1 X62.335 Y141.743 E0.08299
G1 X63.032 Y139.799 E0.08788
G1 X63.922 Y137.740 E0.09543
G1 X67.608 Y130.197 E0.35719
G1 X75.375 Y118.027 E0.61425
G1 X76.384 Y116.901 E0.06432
G1 X77.580 Y116.066 E0.06204
G1 X77.746 Y116.305 F7800.000
G1 F2100.000
G1 X79.141 Y115.747 E0.06393
G1 X80.598 Y115.539 E0.06261
G1 X108.657 Y115.537 E1.19380
G1 X110.082 Y115.702 E0.06104
G1 X111.433 Y116.186 E0.06104
G1 X134.019 Y127.902 E1.08258
G1 X134.955 Y128.500 E0.04725
G1 X135.804 Y129.261 E0.04850
G1 X136.530 Y130.171 E0.04955
G1 X137.100 Y131.197 E0.04991
G1 X137.494 Y132.333 E0.05118
G1 X137.686 Y133.518 E0.05106
G1 X137.678 Y134.652 E0.04824
G1 X137.522 Y135.623 E0.04187
G1 X137.118 Y136.966 E0.05967
G1 X126.168 Y164.721 E1.26946
G1 X125.258 Y166.806 E0.09676
G1 X124.360 Y168.562 E0.08393
G1 X123.286 Y170.378 E0.08979
G1 X122.097 Y172.129 E0.09002
G1 X120.911 Y173.663 E0.08251
G1 X119.268 Y175.529 E0.10579
G1 X117.882 Y176.911 E0.08327
G1 X116.367 Y178.250 E0.08601
G1 X114.461 Y179.723 E0.10250
G1 X112.846 Y180.816 E0.08295
G1 X111.035 Y181.887 E0.08952
G1 X109.149 Y182.848 E0.09006
G1 X107.305 Y183.650 E0.08556
G1 X105.748 Y184.103 E0.06897
G1 X104.773 Y184.182 E0.04162
G1 X84.645 Y184.182 E0.85639
G1 X83.495 Y184.056 E0.04924
G1 X82.364 Y183.717 E0.05020
G1 X80.189 Y182.768 E0.10097
G1 X78.460 Y181.883 E0.08268
G1 X76.655 Y180.815 E0.08922
G1 X74.904 Y179.627 E0.09003
G1 X73.366 Y178.439 E0.08270
G1 X71.608 Y176.901 E0.09934
G1 X70.125 Y175.418 E0.08926
G1 X68.845 Y173.972 E0.08216
G1 X67.401 Y172.125 E0.09973
G1 X66.228 Y170.398 E0.08883
G1 X65.224 Y168.708 E0.08364
G1 X64.097 Y166.495 E0.10565
G1 X63.326 Y164.705 E0.08293
G1 X62.612 Y162.719 E0.08981
G1 X62.023 Y160.692 E0.08981
G1 X61.597 Y158.803 E0.08239
G1 X61.206 Y156.352 E0.10560
G1 X61.025 Y154.403 E0.08325
G1 X60.961 Y152.464 E0.08258
G1 X61.038 Y149.981 E0.10566
G1 X61.226 Y148.029 E0.08345
G1 X61.551 Y145.974 E0.08852
G1 X62.069 Y143.694 E0.09948
G1 X62.612 Y141.835 E0.08239
G1 X63.309 Y139.895 E0.08770
G1 X64.185 Y137.866 E0.09402
G1 X67.851 Y130.360 E0.35541
G1 X75.607 Y118.205 E0.61345
G1 X76.575 Y117.122 E0.06182
G1 X77.697 Y116.339 E0.05818
G10 ; retract
G1 X80.274 Y130.054 F7800.000
G11 ; unretract
G1 F3000.000
G1 X108.227 Y130.054 E1.18927
G1 X108.227 Y132.753 E0.11485
G1 X80.274 Y132.753 E1.18927
G1 X80.274 Y130.114 E0.11230
G1 X80.567 Y130.346 F7800.000
G1 F2700.000
G1 X107.934 Y130.346 E1.16439
G1 X107.934 Y132.461 E0.08997
G1 X80.567 Y132.461 E1.16439
G1 X80.567 Y130.406 E0.08742
G1 X80.376 Y129.995 F7800.000
G10 ; retract
G1 X70.231 Y163.627
G11 ; unretract
G1 F3000.000
G1 X69.625 Y162.225 E0.06501
G1 X69.049 Y160.628 E0.07223
G1 X68.576 Y158.997 E0.07223
G1 X68.206 Y157.341 E0.07223
G1 X67.940 Y155.664 E0.07223
G1 X67.780 Y153.974 E0.07223
G1 X67.727 Y152.277 E0.07223
G1 X67.780 Y150.580 E0.07223
G1 X67.940 Y148.890 E0.07223
G1 X68.206 Y147.213 E0.07223
G1 X68.576 Y145.556 E0.07223
G1 X69.049 Y143.926 E0.07223
G1 X69.625 Y142.329 E0.07223
G1 X70.299 Y140.771 E0.07223
G1 X71.070 Y139.258 E0.07223
G1 X71.934 Y137.797 E0.07223
G1 X72.888 Y136.393 E0.07223
G1 X73.910 Y135.075 E0.07096
G1 X73.705 Y134.549 E0.02401
G1 X73.573 Y134.084 E0.02056
G1 X73.577 Y133.969 E0.00492
G1 X73.597 Y133.938 E0.00155
G1 X73.701 Y133.862 E0.00550
G1 X74.978 Y133.851 E0.05432
G1 X76.252 Y132.578 E0.07663
G1 X77.525 Y131.455 E0.07223
G1 X78.866 Y130.414 E0.07223
G1 X80.271 Y129.460 E0.07223
G1 X81.227 Y128.895 E0.04726
G1 X81.227 Y122.306 E0.28033
G1 X108.174 Y122.306 E1.14653
G1 X108.174 Y128.156 E0.24892
G1 X108.274 Y128.157 E0.00425
G1 X108.274 Y128.895 E0.03140
G1 X109.230 Y129.460 E0.04726
G1 X110.635 Y130.414 E0.07223
G1 X111.976 Y131.455 E0.07223
G1 X113.249 Y132.578 E0.07223
G1 X114.525 Y133.853 E0.07673
G1 X130.710 Y133.853 E0.68863
G1 X130.816 Y133.871 E0.00458
G1 X130.871 Y133.903 E0.00272
G1 X130.924 Y133.970 E0.00361
G1 X130.928 Y134.084 E0.00488
G1 X130.796 Y134.549 E0.02056
G1 X130.650 Y134.883 E0.01550
G1 X115.442 Y134.883 E0.64704
G1 X116.613 Y136.393 E0.08130
G1 X117.567 Y137.797 E0.07223
G1 X118.431 Y139.258 E0.07223
G1 X119.202 Y140.771 E0.07223
G1 X119.876 Y142.329 E0.07223
G1 X120.452 Y143.926 E0.07223
G1 X120.925 Y145.556 E0.07223
G1 X121.295 Y147.213 E0.07223
G1 X121.561 Y148.890 E0.07223
G1 X121.721 Y150.580 E0.07223
G1 X121.774 Y152.277 E0.07223
G1 X121.721 Y153.974 E0.07223
G1 X121.561 Y155.664 E0.07223
G1 X121.295 Y157.341 E0.07223
G1 X120.925 Y158.997 E0.07223
G1 X120.452 Y160.628 E0.07223
G1 X119.876 Y162.225 E0.07223
G1 X119.202 Y163.783 E0.07223
G1 X118.431 Y165.296 E0.07223
G1 X117.567 Y166.757 E0.07223
G1 X116.613 Y168.161 E0.07223
G1 X115.573 Y169.502 E0.07223
G1 X114.450 Y170.776 E0.07223
G1 X113.249 Y171.976 E0.07223
G1 X111.976 Y173.099 E0.07223
G1 X110.635 Y174.139 E0.07223
G1 X109.230 Y175.094 E0.07223
G1 X107.769 Y175.958 E0.07223
G1 X106.258 Y176.728 E0.07219
G1 X105.227 Y177.169 E0.04770
G1 X105.227 Y163.663 E0.57463
G1 X106.032 Y162.871 E0.04806
G1 X106.675 Y162.142 E0.04137
G1 X107.271 Y161.374 E0.04137
G1 X107.818 Y160.569 E0.04136
G1 X108.313 Y159.733 E0.04137
G1 X108.754 Y158.866 E0.04137
G1 X109.140 Y157.974 E0.04136
G1 X109.468 Y157.063 E0.04121
G1 X109.741 Y156.126 E0.04152
G1 X109.953 Y155.177 E0.04137
G1 X110.105 Y154.217 E0.04137
G1 X110.196 Y153.249 E0.04137
G1 X110.227 Y152.277 E0.04137
G1 X110.196 Y151.305 E0.04137
G1 X110.105 Y150.337 E0.04137
G1 X109.953 Y149.380 E0.04124
G1 X109.741 Y148.428 E0.04149
G1 X109.469 Y147.494 E0.04137
G1 X109.140 Y146.580 E0.04137
G1 X108.755 Y145.690 E0.04123
G1 X108.313 Y144.821 E0.04149
G1 X107.818 Y143.984 E0.04137
G1 X107.271 Y143.180 E0.04136
G1 X106.675 Y142.412 E0.04137
G1 X106.032 Y141.683 E0.04137
G1 X105.345 Y140.995 E0.04136
G1 X104.616 Y140.352 E0.04137
G1 X103.847 Y139.756 E0.04137
G1 X103.043 Y139.210 E0.04136
G1 X102.206 Y138.715 E0.04137
G1 X101.340 Y138.273 E0.04137
G1 X100.448 Y137.887 E0.04136
G1 X99.533 Y137.558 E0.04137
G1 X98.599 Y137.287 E0.04137
G1 X97.650 Y137.075 E0.04137
G1 X96.690 Y136.923 E0.04137
G1 X95.719 Y136.831 E0.04149
G1 X94.751 Y136.800 E0.04124
G1 X93.779 Y136.831 E0.04137
G1 X92.811 Y136.923 E0.04137
G1 X91.850 Y137.075 E0.04137
G1 X90.899 Y137.288 E0.04149
G1 X89.968 Y137.558 E0.04123
G1 X89.053 Y137.887 E0.04137
G1 X88.161 Y138.273 E0.04136
G1 X87.295 Y138.715 E0.04137
G1 X86.458 Y139.210 E0.04137
G1 X85.654 Y139.756 E0.04136
G1 X84.885 Y140.352 E0.04137
G1 X84.156 Y140.995 E0.04137
G1 X83.469 Y141.683 E0.04136
G1 X82.826 Y142.412 E0.04137
G1 X82.230 Y143.180 E0.04137
G1 X81.683 Y143.984 E0.04136
G1 X81.188 Y144.821 E0.04137
G1 X80.747 Y145.687 E0.04137
G1 X80.361 Y146.580 E0.04136
G1 X80.032 Y147.494 E0.04137
G1 X79.760 Y148.428 E0.04137
G1 X79.548 Y149.377 E0.04137
G1 X79.396 Y150.337 E0.04137
G1 X79.305 Y151.305 E0.04137
G1 X79.274 Y152.280 E0.04150
G1 X79.305 Y153.249 E0.04123
G1 X79.396 Y154.217 E0.04137
G1 X79.548 Y155.177 E0.04137
G1 X79.760 Y156.126 E0.04137
G1 X80.032 Y157.059 E0.04137
G1 X80.361 Y157.974 E0.04137
G1 X80.747 Y158.866 E0.04136
G1 X81.188 Y159.733 E0.04137
G1 X81.683 Y160.569 E0.04137
G1 X82.230 Y161.374 E0.04136
G1 X82.826 Y162.142 E0.04137
G1 X83.469 Y162.871 E0.04137
G1 X84.274 Y163.663 E0.04806
G1 X84.274 Y177.169 E0.57463
G1 X83.243 Y176.728 E0.04770
G1 X81.732 Y175.958 E0.07219
G1 X80.271 Y175.094 E0.07223
G1 X78.866 Y174.139 E0.07223
G1 X77.525 Y173.099 E0.07223
G1 X76.252 Y171.976 E0.07223
G1 X75.051 Y170.776 E0.07223
G1 X73.928 Y169.502 E0.07223
G1 X72.888 Y168.161 E0.07223
G1 X71.934 Y166.757 E0.07223
G1 X71.070 Y165.296 E0.07223
G1 X70.255 Y163.682 E0.07689
G1 X69.987 Y163.798 F7800.000
G1 F2700.000
G1 X69.353 Y162.333 E0.06796
G1 X68.771 Y160.718 E0.07301
G1 X68.293 Y159.070 E0.07301
G1 X67.918 Y157.395 E0.07301
G1 X67.650 Y155.700 E0.07301
G1 X67.488 Y153.992 E0.07301
G1 X67.434 Y152.277 E0.07301
G1 X67.488 Y150.562 E0.07301
G1 X67.650 Y148.853 E0.07301
G1 X67.918 Y147.158 E0.07301
G1 X68.293 Y145.484 E0.07301
G1 X68.771 Y143.836 E0.07301
G1 X69.353 Y142.221 E0.07301
G1 X70.034 Y140.646 E0.07301
G1 X70.813 Y139.117 E0.07301
G1 X71.687 Y137.640 E0.07301
G1 X72.651 Y136.221 E0.07301
G1 X73.578 Y135.027 E0.06430
G1 X73.428 Y134.642 E0.01755
G1 X73.280 Y134.120 E0.02311
G1 X73.287 Y133.924 E0.00833
G1 X73.364 Y133.758 E0.00780
G1 X73.447 Y133.671 E0.00512
G1 X73.591 Y133.588 E0.00707
G1 X73.660 Y133.569 E0.00305
G1 X74.856 Y133.560 E0.05088
G1 X76.051 Y132.364 E0.07193
G1 X77.338 Y131.229 E0.07301
G1 X78.694 Y130.178 E0.07301
G1 X80.114 Y129.213 E0.07301
G1 X80.934 Y128.728 E0.04055
G1 X80.934 Y122.013 E0.28567
G1 X108.467 Y122.013 E1.17141
G1 X108.467 Y127.864 E0.24892
G1 X108.567 Y127.864 E0.00425
G1 X108.567 Y128.728 E0.03675
G1 X109.387 Y129.213 E0.04055
G1 X110.807 Y130.178 E0.07301
G1 X112.163 Y131.229 E0.07301
G1 X113.450 Y132.364 E0.07301
G1 X114.646 Y133.560 E0.07197
G1 X130.735 Y133.560 E0.68453
G1 X130.917 Y133.592 E0.00787
G1 X131.054 Y133.671 E0.00673
G1 X131.189 Y133.844 E0.00934
G1 X131.214 Y133.923 E0.00352
G1 X131.221 Y134.120 E0.00838
G1 X131.073 Y134.642 E0.02311
G1 X130.959 Y134.934 E0.01333
G1 X130.828 Y135.155 E0.01093
G1 X130.731 Y135.175 E0.00420
G1 X116.039 Y135.175 E0.62512
G1 X116.850 Y136.221 E0.05630
G1 X117.814 Y137.640 E0.07301
G1 X118.688 Y139.117 E0.07301
G1 X119.467 Y140.646 E0.07301
G1 X120.148 Y142.221 E0.07301
G1 X120.730 Y143.836 E0.07301
G1 X121.208 Y145.484 E0.07301
G1 X121.583 Y147.158 E0.07301
G1 X121.851 Y148.853 E0.07301
G1 X122.013 Y150.562 E0.07301
G1 X122.067 Y152.277 E0.07301
G1 X122.013 Y153.992 E0.07301
G1 X121.851 Y155.700 E0.07301
G1 X121.583 Y157.395 E0.07301
G1 X121.208 Y159.070 E0.07301
G1 X120.730 Y160.718 E0.07301
G1 X120.148 Y162.333 E0.07301
G1 X119.467 Y163.907 E0.07301
G1 X118.688 Y165.436 E0.07301
G1 X117.814 Y166.914 E0.07301
G1 X116.850 Y168.333 E0.07301
G1 X115.798 Y169.689 E0.07301
G1 X114.663 Y170.976 E0.07301
G1 X113.450 Y172.189 E0.07301
G1 X112.163 Y173.324 E0.07301
G1 X110.807 Y174.376 E0.07301
G1 X109.387 Y175.341 E0.07301
G1 X107.910 Y176.214 E0.07301
G1 X106.381 Y176.993 E0.07299
G1 X104.934 Y177.612 E0.06697
G1 X104.934 Y163.531 E0.59909
G1 X105.145 Y163.345 E0.01193
G1 X105.819 Y162.671 E0.04058
G1 X106.450 Y161.955 E0.04058
G1 X107.035 Y161.202 E0.04059
G1 X107.571 Y160.413 E0.04058
G1 X108.056 Y159.592 E0.04058
G1 X108.489 Y158.742 E0.04058
G1 X108.868 Y157.866 E0.04058
G1 X109.190 Y156.972 E0.04043
G1 X109.457 Y156.053 E0.04074
G1 X109.665 Y155.122 E0.04059
G1 X109.815 Y154.180 E0.04058
G1 X109.904 Y153.230 E0.04058
G1 X109.934 Y152.277 E0.04058
G1 X109.904 Y151.323 E0.04058
G1 X109.815 Y150.374 E0.04058
G1 X109.666 Y149.435 E0.04045
G1 X109.457 Y148.501 E0.04071
G1 X109.191 Y147.585 E0.04058
G1 X108.868 Y146.687 E0.04058
G1 X108.490 Y145.815 E0.04045
G1 X108.056 Y144.962 E0.04071
G1 X107.571 Y144.141 E0.04058
G1 X107.035 Y143.352 E0.04058
G1 X106.450 Y142.598 E0.04059
G1 X105.819 Y141.883 E0.04058
G1 X105.145 Y141.208 E0.04058
G1 X104.429 Y140.578 E0.04058
G1 X103.675 Y139.993 E0.04059
G1 X102.886 Y139.457 E0.04058
G1 X102.065 Y138.971 E0.04058
G1 X101.215 Y138.538 E0.04058
G1 X100.340 Y138.159 E0.04058
G1 X99.443 Y137.836 E0.04058
G1 X98.527 Y137.570 E0.04058
G1 X97.596 Y137.362 E0.04058
G1 X96.654 Y137.213 E0.04058
G1 X95.701 Y137.123 E0.04071
G1 X94.751 Y137.093 E0.04045
G1 X93.797 Y137.123 E0.04058
G1 X92.847 Y137.213 E0.04058
G1 X91.905 Y137.362 E0.04058
G1 X90.972 Y137.571 E0.04071
G1 X90.058 Y137.836 E0.04045
G1 X89.161 Y138.159 E0.04058
G1 X88.286 Y138.538 E0.04058
G1 X87.436 Y138.971 E0.04058
G1 X86.615 Y139.457 E0.04058
G1 X85.826 Y139.993 E0.04058
G1 X85.072 Y140.578 E0.04059
G1 X84.356 Y141.208 E0.04058
G1 X83.682 Y141.883 E0.04058
G1 X83.051 Y142.598 E0.04058
G1 X82.466 Y143.352 E0.04059
G1 X81.930 Y144.141 E0.04058
G1 X81.445 Y144.962 E0.04058
G1 X81.012 Y145.812 E0.04058
G1 X80.633 Y146.687 E0.04058
G1 X80.310 Y147.585 E0.04058
G1 X80.044 Y148.501 E0.04058
G1 X79.836 Y149.432 E0.04058
G1 X79.686 Y150.374 E0.04058
G1 X79.597 Y151.323 E0.04058
G1 X79.567 Y152.280 E0.04072
G1 X79.597 Y153.230 E0.04045
G1 X79.686 Y154.180 E0.04058
G1 X79.836 Y155.122 E0.04058
G1 X80.044 Y156.053 E0.04058
G1 X80.310 Y156.969 E0.04058
G1 X80.633 Y157.866 E0.04058
G1 X81.012 Y158.742 E0.04058
G1 X81.445 Y159.592 E0.04058
G1 X81.930 Y160.413 E0.04058
G1 X82.466 Y161.202 E0.04058
G1 X83.051 Y161.955 E0.04059
G1 X83.682 Y162.671 E0.04058
G1 X84.356 Y163.345 E0.04058
G1 X84.567 Y163.531 E0.01193
G1 X84.567 Y177.612 E0.59909
G1 X83.120 Y176.993 E0.06697
G1 X81.591 Y176.214 E0.07299
G1 X80.114 Y175.341 E0.07301
G1 X78.694 Y174.376 E0.07301
G1 X77.338 Y173.324 E0.07301
G1 X76.051 Y172.189 E0.07301
G1 X74.838 Y170.976 E0.07301
G1 X73.703 Y169.689 E0.07301
G1 X72.651 Y168.333 E0.07301
G1 X71.687 Y166.914 E0.07301
G1 X70.813 Y165.436 E0.07301
G1 X70.011 Y163.853 E0.07551
G1 X70.216 Y163.470 F7800.000
G10 ; retract
G1 X77.763 Y173.136
G11 ; unretract
G1 F3000.000
G1 X75.228 Y170.600 E0.15291
G1 X74.120 Y169.344 E0.07143
G1 X73.201 Y168.159 E0.06396
G1 X78.869 Y173.827 E0.34183
G1 X80.205 Y174.749 E0.06925
G1 X72.279 Y166.822 E0.47804
G1 X71.636 Y165.765 E0.05276
G1 X81.262 Y175.391 E0.58057
G1 X81.852 Y175.740 E0.02920
G1 X82.206 Y175.920 E0.01695
G1 X71.107 Y164.822 E0.66936
G1 X70.676 Y163.977 E0.04044
G1 X83.051 Y176.351 E0.74629
G1 X83.349 Y176.503 E0.01427
G1 X83.817 Y176.703 E0.02173
G1 X70.320 Y163.205 E0.81404
G1 X70.003 Y162.475 E0.03396
G1 X84.026 Y176.497 E0.84569
G1 X84.026 Y176.083 E0.01767
G1 X69.731 Y161.788 E0.86209
G1 X69.498 Y161.141 E0.02935
G1 X84.026 Y175.668 E0.87615
G1 X84.026 Y175.254 E0.01767
G1 X69.271 Y160.499 E0.88987
G1 X69.101 Y159.915 E0.02594
G1 X84.026 Y174.839 E0.90011
G1 X84.026 Y174.425 E0.01767
